%
O1001
(T3 D=0.125 CR=0.0625 - ZMIN=-0.54 - BALL END MILL)
N10 G90 G94 G17 G49 G40 G80
N15 G20
N20 G28 G91 Z0.
N25 G90

(PARALLEL3 2)
N30 T3 M06
N35 S5000 M03
N40 G17 G90 G94
N45 G54
N50 M08
N55 G00 X1.5003 Y1.5123
N60 G43 Z0.6 H03
N65 G00 Z0.0395
N70 G01 Z-0.0275 F40.
N75 G19 G02 Y1.5 Z-0.04 J-0.0125
N80 G01 Y1.4423 Z-0.041
N85 Y1.3923 Z-0.0432
N90 Y1.3401 Z-0.0471
N95 Y1.288 Z-0.0524
N100 Y1.2369 Z-0.0591
N105 Y1.1859 Z-0.0673
N110 Y1.1352 Z-0.0768
N115 Y1.0848 Z-0.0878
N120 Y1.0347 Z-0.1003
N125 Y0.985 Z-0.1141
N130 Y0.9357 Z-0.1293
N135 Y0.8901 Z-0.1448
N140 Y0.8686 Z-0.1535
N145 Y0.8467 Z-0.1645
N150 Y0.8266 Z-0.1764
N155 Y0.8071 Z-0.1902
N160 Y0.7887 Z-0.2054
N165 Y0.7716 Z-0.2219
N170 Y0.7547 Z-0.2409
N175 Y0.7257 Z-0.2754
N180 Y0.7206 Z-0.2806
N185 Y0.717 Z-0.2834
N190 Y0.7131 Z-0.2857
N195 Y0.7095 Z-0.2873
N200 Y0.705 Z-0.2888
N205 Y0.6997 Z-0.2896
N210 Y0.6891 Z-0.2901
N215 Y0.6352 Z-0.2909
N220 Y0.5781 Z-0.2934
N225 Y0.5225 Z-0.2974
N230 Y0.4662 Z-0.3029
N235 Y0.4076 Z-0.3103
N240 Y0.3525 Z-0.3189
N245 Y0.2976 Z-0.3289
N250 Y0.243 Z-0.3404
N255 Y0.188 Z-0.3536
N260 Y0.1342 Z-0.368
N265 Y0.08 Z-0.3842
N270 Y0.027 Z-0.4016
N275 Y0. Z-0.4112
N280 Y-0.0004 Z-0.4113
N285 Y-0.002 Z-0.4116
N290 Y-0.0037
N295 Y-0.0052 Z-0.411
N300 Y-0.0053
N305 Y-0.0066 Z-0.4105
N310 Y-0.008 Z-0.4104
N315 G17 G02 X1.4753 I-0.0125
N320 G01 Y-0.0066 Z-0.4105
N325 Y-0.0052 Z-0.411
N330 Y-0.0037 Z-0.4116
N335 Y-0.002
N340 Y-0.0004 Z-0.4113
N345 Y0.0331 Z-0.3994
N350 Y0.0829 Z-0.3833
N355 Y0.1363 Z-0.3674
N360 Y0.1902 Z-0.353
N365 Y0.2461 Z-0.3397
N370 Y0.3065 Z-0.3271
N375 Y0.358 Z-0.3179
N380 Y0.4131 Z-0.3095
N385 Y0.4684 Z-0.3026
N390 Y0.5273 Z-0.2969
N395 Y0.5795 Z-0.2933
N400 Y0.6331 Z-0.291
N405 Y0.6949 Z-0.29
N410 Y0.7023 Z-0.2893
N415 Y0.7095 Z-0.2873
N420 Y0.718 Z-0.2827
N425 Y0.7232 Z-0.278
N430 Y0.7281 Z-0.2726
N435 Y0.7569 Z-0.2383
N440 Y0.773 Z-0.2204
N445 Y0.7905 Z-0.2037
N450 Y0.8073 Z-0.19
N455 Y0.8277 Z-0.1757
N460 Y0.8467 Z-0.1645
N465 Y0.8535 Z-0.1609
N470 Y0.87 Z-0.1529
N475 Y0.8907 Z-0.1446
N480 Y0.943 Z-0.1269
N485 Y0.9891 Z-0.1129
N490 Y1.0421 Z-0.0983
N495 Y1.0922 Z-0.0861
N500 Y1.1393 Z-0.0759
N505 Y1.1934 Z-0.0659
N510 Y1.2393 Z-0.0587
N515 Y1.2922 Z-0.0519
N520 Y1.3477 Z-0.0464
N525 Y1.3923 Z-0.0432
N530 Y1.4458 Z-0.0408
N535 Y1.5004 Z-0.04
N540 Y1.5018 Z-0.0398
N545 Y1.5031 Z-0.0394
N550 Y1.5044 Z-0.0389
N555 Y1.5058 Z-0.0387
N560 G03 X1.4503 I-0.0125
N565 G01 Y1.5044 Z-0.0389
N570 Y1.5031 Z-0.0394
N575 Y1.503
N580 Y1.5018 Z-0.0398
N585 Y1.5004 Z-0.04
N590 Y1.4442 Z-0.0409
N595 Y1.3906 Z-0.0433
N600 Y1.346 Z-0.0465
N605 Y1.2947 Z-0.0516
N610 Y1.2435 Z-0.0581
N615 Y1.1888 Z-0.0667
N620 Y1.1418 Z-0.0754
N625 Y1.0914 Z-0.0862
N630 Y1.0413 Z-0.0985
N635 Y0.9915 Z-0.1121
N640 Y0.9389 Z-0.1283
N645 Y0.8905 Z-0.1447
N650 Y0.8699 Z-0.1529
N655 Y0.8534 Z-0.1609
N660 Y0.8466 Z-0.1645
N665 Y0.8276 Z-0.1757
N670 Y0.8074 Z-0.19
N675 Y0.7905 Z-0.2038
N680 Y0.773 Z-0.2204
N685 Y0.7568 Z-0.2383
N690 Y0.7281 Z-0.2726
N695 Y0.7232 Z-0.278
N700 Y0.7179 Z-0.2827
N705 Y0.7095 Z-0.2873
N710 Y0.7023 Z-0.2893
N715 Y0.6949 Z-0.29
N720 Y0.6331 Z-0.291
N725 Y0.5795 Z-0.2933
N730 Y0.5273 Z-0.2969
N735 Y0.4684 Z-0.3026
N740 Y0.4173 Z-0.3089
N745 Y0.3571 Z-0.3181
N750 Y0.3005 Z-0.3283
N755 Y0.2493 Z-0.339
N760 Y0.1909 Z-0.3528
N765 Y0.1403 Z-0.3663
N770 Y0.0828 Z-0.3833
N775 Y0.033 Z-0.3995
N780 Y-0.0004 Z-0.4113
N785 Y-0.002 Z-0.4116
N790 Y-0.0037
N795 Y-0.0052 Z-0.411
N800 Y-0.0066 Z-0.4105
N805 Y-0.008 Z-0.4104
N810 G02 X1.4253 I-0.0125
N815 G01 Y-0.0066 Z-0.4105
N820 Y-0.0052 Z-0.411
N825 Y-0.0037 Z-0.4116
N830 Y-0.002
N835 Y-0.0004 Z-0.4113
N840 Y0.0338 Z-0.3992
N845 Y0.0835 Z-0.383
N850 Y0.1411 Z-0.3661
N855 Y0.1916 Z-0.3526
N860 Y0.25 Z-0.3388
N865 Y0.3012 Z-0.3282
N870 Y0.3595 Z-0.3176
N875 Y0.382 Z-0.3142
N880 Y0.4188 Z-0.3087
N885 Y0.4699 Z-0.3024
N890 Y0.5288 Z-0.2968
N895 Y0.5803 Z-0.2933
N900 Y0.6331 Z-0.291
N905 Y0.6949 Z-0.29
N910 Y0.7023 Z-0.2893
N915 Y0.7095 Z-0.2873
N920 Y0.7179 Z-0.2828
N925 Y0.7232 Z-0.2781
N930 Y0.728 Z-0.2726
N935 Y0.7568 Z-0.2384
N940 Y0.7729 Z-0.2204
N945 Y0.7905 Z-0.2038
N950 Y0.8074 Z-0.19
N955 Y0.8276 Z-0.1758
N960 Y0.8466 Z-0.1645
N965 Y0.8534 Z-0.1609
N970 Y0.8699 Z-0.1529
N975 Y0.8906 Z-0.1446
N980 Y0.9389 Z-0.1283
N985 Y0.9915 Z-0.1121
N990 Y1.0413 Z-0.0985
N995 Y1.0914 Z-0.0863
N1000 Y1.1418 Z-0.0754
N1005 Y1.1892 Z-0.0666
N1010 Y1.2435 Z-0.0581
N1015 Y1.2946 Z-0.0516
N1020 Y1.346 Z-0.0465
N1025 Y1.3906 Z-0.0433
N1030 Y1.4433 Z-0.0409
N1035 Y1.5004 Z-0.04
N1040 Y1.5018 Z-0.0398
N1045 Y1.503 Z-0.0394
N1050 Y1.5044 Z-0.0389
N1055 Y1.5058 Z-0.0387
N1060 G03 X1.4003 I-0.0125
N1065 G01 Y1.5044 Z-0.0389
N1070 Y1.503 Z-0.0394
N1075 Y1.5018 Z-0.0398
N1080 Y1.5004 Z-0.04
N1085 Y1.4425 Z-0.041
N1090 Y1.3967 Z-0.0429
N1095 Y1.3453 Z-0.0466
N1100 Y1.294 Z-0.0516
N1105 Y1.2411 Z-0.0584
N1110 Y1.1918 Z-0.0662
N1115 Y1.1395 Z-0.0759
N1120 Y1.0907 Z-0.0864
N1125 Y1.0406 Z-0.0987
N1130 Y0.9892 Z-0.1128
N1135 Y0.9399 Z-0.1279
N1140 Y0.8906 Z-0.1446
N1145 Y0.8685 Z-0.1536
N1150 Y0.8535 Z-0.1609
N1155 Y0.8467 Z-0.1644
N1160 Y0.8277 Z-0.1757
N1165 Y0.8074 Z-0.19
N1170 Y0.7906 Z-0.2037
N1175 Y0.773 Z-0.2203
N1180 Y0.7569 Z-0.2382
N1185 Y0.7281 Z-0.2725
N1190 Y0.7233 Z-0.2779
N1195 Y0.718 Z-0.2827
N1200 Y0.7122 Z-0.2861
N1205 Y0.7095 Z-0.2873
N1210 Y0.7023 Z-0.2893
N1215 Y0.6949 Z-0.29
N1220 Y0.6331 Z-0.291
N1225 Y0.5769 Z-0.2935
N1230 Y0.5289 Z-0.2968
N1235 Y0.4707 Z-0.3023
N1240 Y0.4128 Z-0.3095
N1245 Y0.3618 Z-0.3173
N1250 Y0.3019 Z-0.328
N1255 Y0.2456 Z-0.3398
N1260 Y0.1947 Z-0.3519
N1265 Y0.1367 Z-0.3673
N1270 Y0.0865 Z-0.3821
N1275 Y0.0295 Z-0.4007
N1280 Y-0.0004 Z-0.4113
N1285 Y-0.002 Z-0.4116
N1290 Y-0.0037
N1295 Y-0.0052 Z-0.411
N1300 Y-0.0066 Z-0.4106
N1305 Y-0.008 Z-0.4104
N1310 G02 X1.3753 I-0.0125
N1315 G01 Y-0.0066 Z-0.4106
N1320 Y-0.0052 Z-0.411
N1325 Y-0.0037 Z-0.4116
N1330 Y-0.002
N1335 Y-0.0004 Z-0.4113
N1340 Y0.03 Z-0.4005
N1345 Y0.0871 Z-0.382
N1350 Y0.1373 Z-0.3671
N1355 Y0.1952 Z-0.3517
N1360 Y0.2462 Z-0.3397
N1365 Y0.3008 Z-0.3283
N1370 Y0.3623 Z-0.3172
N1375 Y0.4133 Z-0.3095
N1380 Y0.4713 Z-0.3023
N1385 Y0.5294 Z-0.2967
N1390 Y0.5809 Z-0.2932
N1395 Y0.6331 Z-0.291
N1400 Y0.6949 Z-0.29
N1405 Y0.7023 Z-0.2893
N1410 Y0.7095 Z-0.2874
N1415 Y0.718 Z-0.2827
N1420 Y0.7232 Z-0.278
N1425 Y0.7281 Z-0.2726
N1430 Y0.7569 Z-0.2383
N1435 Y0.773 Z-0.2204
N1440 Y0.7905 Z-0.2037
N1445 Y0.8073 Z-0.19
N1450 Y0.8277 Z-0.1757
N1455 Y0.8467 Z-0.1645
N1460 Y0.8535 Z-0.1609
N1465 Y0.8684 Z-0.1536
N1470 Y0.8905 Z-0.1446
N1475 Y0.9398 Z-0.128
N1480 Y0.9891 Z-0.1129
N1485 Y1.0405 Z-0.0987
N1490 Y1.0906 Z-0.0864
N1495 Y1.1394 Z-0.0759
N1500 Y1.191 Z-0.0663
N1505 Y1.242 Z-0.0583
N1510 Y1.2931 Z-0.0517
N1515 Y1.3444 Z-0.0466
N1520 Y1.3959 Z-0.043
N1525 Y1.4417 Z-0.041
N1530 Y1.5004 Z-0.04
N1535 Y1.5018 Z-0.0398
N1540 Y1.503 Z-0.0394
N1545 Y1.5044 Z-0.0389
N1550 Y1.5058 Z-0.0387
N1555 G03 X1.3503 I-0.0125
N1560 G01 Y1.5044 Z-0.0389
N1565 Y1.5031 Z-0.0394
N1570 Y1.5018 Z-0.0398
N1575 Y1.5004 Z-0.04
N1580 Y1.4447 Z-0.0409
N1585 Y1.3883 Z-0.0435
N1590 Y1.3444 Z-0.0466
N1595 Y1.2938 Z-0.0517
N1600 Y1.2435 Z-0.0581
N1605 Y1.1933 Z-0.0659
N1610 Y1.1433 Z-0.0751
N1615 Y1.0936 Z-0.0857
N1620 Y1.0401 Z-0.0988
N1625 Y0.9952 Z-0.1111
N1630 Y0.9458 Z-0.1261
N1635 Y0.9249 Z-0.133
N1640 Y0.8962 Z-0.1426
N1645 Y0.889 Z-0.1453
N1650 Y0.8756 Z-0.1506
N1655 Y0.8685 Z-0.1536
N1660 Y0.848 Z-0.1637
N1665 Y0.8267 Z-0.1764
N1670 Y0.8096 Z-0.1883
N1675 Y0.7923 Z-0.2022
N1680 Y0.7739 Z-0.2194
N1685 Y0.7569 Z-0.2382
N1690 Y0.7256 Z-0.2755
N1695 Y0.7203 Z-0.2808
N1700 Y0.7145 Z-0.285
N1705 Y0.708 Z-0.2878
N1710 Y0.705 Z-0.2888
N1715 Y0.6976 Z-0.2898
N1720 Y0.6358 Z-0.2909
N1725 Y0.5832 Z-0.2931
N1730 Y0.5257 Z-0.297
N1735 Y0.4743 Z-0.302
N1740 Y0.4162 Z-0.3091
N1745 Y0.3578 Z-0.3179
N1750 Y0.3004 Z-0.3283
N1755 Y0.2458 Z-0.3397
N1760 Y0.1916 Z-0.3527
N1765 Y0.141 Z-0.3661
N1770 Y0.0835 Z-0.3831
N1775 Y0.0337 Z-0.3993
N1780 Y-0.0004 Z-0.4113
N1785 Y-0.002 Z-0.4116
N1790 Y-0.0037
N1795 Y-0.0052 Z-0.411
N1800 Y-0.0066 Z-0.4105
N1805 Y-0.008 Z-0.4104
N1810 G02 X1.3253 I-0.0125
N1815 G01 Y-0.0066 Z-0.4105
N1820 Y-0.0052 Z-0.411
N1825 Y-0.0037 Z-0.4116
N1830 Y-0.002
N1835 Y-0.0004 Z-0.4113
N1840 Y0.0336 Z-0.3993
N1845 Y0.0833 Z-0.3831
N1850 Y0.1409 Z-0.3661
N1855 Y0.1915 Z-0.3527
N1860 Y0.2457 Z-0.3398
N1865 Y0.3003 Z-0.3283
N1870 Y0.3577 Z-0.3179
N1875 Y0.4155 Z-0.3092
N1880 Y0.4599 Z-0.3036
N1885 Y0.4802 Z-0.3014
N1890 Y0.5308 Z-0.2966
N1895 Y0.5815 Z-0.2932
N1900 Y0.6337 Z-0.291
N1905 Y0.6997 Z-0.2897
N1910 Y0.7069 Z-0.2882
N1915 Y0.7138 Z-0.2854
N1920 Y0.7196 Z-0.2814
N1925 Y0.7264 Z-0.2746
N1930 Y0.7571 Z-0.238
N1935 Y0.7741 Z-0.2193
N1940 Y0.791 Z-0.2033
N1945 Y0.8106 Z-0.1875
N1950 Y0.8289 Z-0.1749
N1955 Y0.8473 Z-0.1641
N1960 Y0.8698 Z-0.153
N1965 Y0.8902 Z-0.1448
N1970 Y0.8974 Z-0.1422
N1975 Y0.9334 Z-0.1301
N1980 Y0.9471 Z-0.1257
N1985 Y0.9965 Z-0.1107
N1990 Y1.0455 Z-0.0974
N1995 Y1.0949 Z-0.0855
N2000 Y1.1446 Z-0.0749
N2005 Y1.1945 Z-0.0657
N2010 Y1.2447 Z-0.0579
N2015 Y1.2944 Z-0.0516
N2020 Y1.3441 Z-0.0467
N2025 Y1.3948 Z-0.043
N2030 Y1.4442 Z-0.0409
N2035 Y1.5004 Z-0.04
N2040 Y1.5018 Z-0.0398
N2045 Y1.503 Z-0.0394
N2050 Y1.5031
N2055 Y1.5044 Z-0.0389
N2060 Y1.5058 Z-0.0387
N2065 G03 X1.3003 I-0.0125
N2070 G01 Y1.5044 Z-0.0389
N2075 Y1.5031 Z-0.0394
N2080 Y1.5018 Z-0.0398
N2085 Y1.5004 Z-0.04
N2090 Y1.4458 Z-0.0408
N2095 Y1.3923 Z-0.0432
N2100 Y1.3484 Z-0.0463
N2105 Y1.2979 Z-0.0512
N2110 Y1.255 Z-0.0566
N2115 Y1.234 Z-0.0595
N2120 Y1.1913 Z-0.0663
N2125 Y1.1421 Z-0.0754
N2130 Y1.0924 Z-0.086
N2135 Y1.0414 Z-0.0985
N2140 Y0.994 Z-0.1114
N2145 Y0.9447 Z-0.1264
N2150 Y0.895 Z-0.143
N2155 Y0.8815 Z-0.1482
N2160 Y0.8744 Z-0.151
N2165 Y0.8673 Z-0.1541
N2170 Y0.851 Z-0.1621
N2175 Y0.8293 Z-0.1747
N2180 Y0.8085 Z-0.1891
N2185 Y0.7913 Z-0.2031
N2190 Y0.7751 Z-0.2183
N2195 Y0.7587 Z-0.2361
N2200 Y0.7248 Z-0.2763
N2205 Y0.7196 Z-0.2814
N2210 Y0.7137 Z-0.2854
N2215 Y0.7095 Z-0.2874
N2220 Y0.7023 Z-0.2893
N2225 Y0.6949 Z-0.29
N2230 Y0.6329 Z-0.291
N2235 Y0.5808 Z-0.2932
N2240 Y0.5301 Z-0.2967
N2245 Y0.4795 Z-0.3014
N2250 Y0.4525 Z-0.3045
N2255 Y0.4122 Z-0.3096
N2260 Y0.3578 Z-0.3179
N2265 Y0.3004 Z-0.3283
N2270 Y0.2458 Z-0.3398
N2275 Y0.1915 Z-0.3527
N2280 Y0.141 Z-0.3661
N2285 Y0.0834 Z-0.3831
N2290 Y0.0337 Z-0.3993
N2295 Y-0.0004 Z-0.4113
N2300 Y-0.002 Z-0.4116
N2305 Y-0.0037
N2310 Y-0.0052 Z-0.411
N2315 Y-0.0066 Z-0.4105
N2320 Y-0.008 Z-0.4104
N2325 G02 X1.2753 I-0.0125
N2330 G01 Y-0.0066 Z-0.4105
N2335 Y-0.0053 Z-0.411
N2340 Y-0.0052
N2345 Y-0.0037 Z-0.4116
N2350 Y-0.002
N2355 Y-0.0004 Z-0.4113
N2360 Y0.0292 Z-0.4008
N2365 Y0.0823 Z-0.3835
N2370 Y0.1357 Z-0.3676
N2375 Y0.1912 Z-0.3527
N2380 Y0.2513 Z-0.3385
N2385 Y0.3025 Z-0.3279
N2390 Y0.3607 Z-0.3174
N2395 Y0.4117 Z-0.3097
N2400 Y0.4335 Z-0.3069
N2405 Y0.4757 Z-0.3018
N2410 Y0.5262 Z-0.297
N2415 Y0.5803 Z-0.2933
N2420 Y0.6358 Z-0.2909
N2425 Y0.6976 Z-0.2898
N2430 Y0.705 Z-0.2888
N2435 Y0.7078 Z-0.2879
N2440 Y0.7142 Z-0.2852
N2445 Y0.7201 Z-0.281
N2450 Y0.7253 Z-0.2758
N2455 Y0.7564 Z-0.2389
N2460 Y0.773 Z-0.2204
N2465 Y0.789 Z-0.2051
N2470 Y0.7949 Z-0.2001
N2475 Y0.8092 Z-0.1886
N2480 Y0.8269 Z-0.1763
N2485 Y0.8483 Z-0.1635
N2490 Y0.8681 Z-0.1538
N2495 Y0.8752 Z-0.1507
N2500 Y0.8885 Z-0.1454
N2505 Y0.8957 Z-0.1428
N2510 Y0.9101 Z-0.138
N2515 Y0.9454 Z-0.1262
N2520 Y0.9939 Z-0.1114
N2525 Y1.0438 Z-0.0978
N2530 Y1.0923 Z-0.086
N2535 Y1.1429 Z-0.0752
N2540 Y1.1719 Z-0.0698
N2545 Y1.1988 Z-0.065
N2550 Y1.2482 Z-0.0574
N2555 Y1.2979 Z-0.0512
N2560 Y1.3484 Z-0.0463
N2565 Y1.3923 Z-0.0432
N2570 Y1.4458 Z-0.0408
N2575 Y1.5004 Z-0.04
N2580 Y1.5018 Z-0.0398
N2585 Y1.5031 Z-0.0394
N2590 Y1.5044 Z-0.0389
N2595 Y1.5058 Z-0.0387
N2600 G03 X1.2503 I-0.0125
N2605 G01 Y1.5044 Z-0.0389
N2610 Y1.5031 Z-0.0394
N2615 Y1.5018 Z-0.0398
N2620 Y1.5004 Z-0.04
N2625 Y1.4458 Z-0.0408
N2630 Y1.3923 Z-0.0432
N2635 Y1.3484 Z-0.0463
N2640 Y1.2986 Z-0.0511
N2645 Y1.2565 Z-0.0563
N2650 Y1.2355 Z-0.0593
N2655 Y1.1928 Z-0.066
N2660 Y1.1436 Z-0.0751
N2665 Y1.0947 Z-0.0855
N2670 Y1.0461 Z-0.0973
N2675 Y1.0124 Z-0.1063
N2680 Y0.9895 Z-0.1127
N2685 Y0.9386 Z-0.1284
N2690 Y0.8905 Z-0.1446
N2695 Y0.8714 Z-0.1523
N2700 Y0.8531 Z-0.1611
N2705 Y0.8463 Z-0.1647
N2710 Y0.8306 Z-0.1739
N2715 Y0.8098 Z-0.1881
N2720 Y0.7902 Z-0.204
N2725 Y0.7727 Z-0.2207
N2730 Y0.7565 Z-0.2386
N2735 Y0.7278 Z-0.2729
N2740 Y0.7229 Z-0.2783
N2745 Y0.7177 Z-0.283
N2750 Y0.7095 Z-0.2874
N2755 Y0.7023 Z-0.2893
N2760 Y0.6949 Z-0.29
N2765 Y0.6329 Z-0.291
N2770 Y0.5812 Z-0.2932
N2775 Y0.5313 Z-0.2966
N2780 Y0.489 Z-0.3005
N2785 Y0.4611 Z-0.3034
N2790 Y0.4183 Z-0.3088
N2795 Y0.368 Z-0.3163
N2800 Y0.3404 Z-0.3211
N2805 Y0.2997 Z-0.3285
N2810 Y0.2451 Z-0.3399
N2815 Y0.1909 Z-0.3528
N2820 Y0.137 Z-0.3672
N2825 Y0.0868 Z-0.382
N2830 Y0.0298 Z-0.4006
N2835 Y-0.0004 Z-0.4113
N2840 Y-0.002 Z-0.4116
N2845 Y-0.0037
N2850 Y-0.0052 Z-0.411
N2855 Y-0.0066 Z-0.4106
N2860 Y-0.008 Z-0.4104
N2865 G02 X1.2253 I-0.0125
N2870 G01 Y-0.0066 Z-0.4106
N2875 Y-0.0052 Z-0.411
N2880 Y-0.0037 Z-0.4116
N2885 Y-0.002
N2890 Y-0.0004 Z-0.4113
N2895 Y0.0303 Z-0.4004
N2900 Y0.0873 Z-0.3819
N2905 Y0.1375 Z-0.3671
N2910 Y0.1955 Z-0.3517
N2915 Y0.2464 Z-0.3396
N2920 Y0.301 Z-0.3282
N2925 Y0.3492 Z-0.3195
N2930 Y0.3693 Z-0.3161
N2935 Y0.4188 Z-0.3087
N2940 Y0.4617 Z-0.3034
N2945 Y0.4896 Z-0.3004
N2950 Y0.5318 Z-0.2966
N2955 Y0.5817 Z-0.2932
N2960 Y0.6329 Z-0.291
N2965 Y0.6915 Z-0.29
N2970 Y0.7023 Z-0.2893
N2975 Y0.7095 Z-0.2874
N2980 Y0.7134 Z-0.2856
N2985 Y0.7192 Z-0.2817
N2990 Y0.7245 Z-0.2767
N2995 Y0.7571 Z-0.238
N3000 Y0.7747 Z-0.2187
N3005 Y0.7908 Z-0.2035
N3010 Y0.8074 Z-0.19
N3015 Y0.828 Z-0.1755
N3020 Y0.847 Z-0.1643
N3025 Y0.8538 Z-0.1607
N3030 Y0.8668 Z-0.1544
N3035 Y0.8738 Z-0.1513
N3040 Y0.8944 Z-0.1432
N3045 Y0.9441 Z-0.1266
N3050 Y0.9934 Z-0.1116
N3055 Y1.0417 Z-0.0984
N3060 Y1.0903 Z-0.0865
N3065 Y1.1118 Z-0.0818
N3070 Y1.1459 Z-0.0746
N3075 Y1.1943 Z-0.0657
N3080 Y1.243 Z-0.0582
N3085 Y1.2859 Z-0.0526
N3090 Y1.307 Z-0.0503
N3095 Y1.3492 Z-0.0462
N3100 Y1.3923 Z-0.0432
N3105 Y1.4458 Z-0.0408
N3110 Y1.5004 Z-0.04
N3115 Y1.5018 Z-0.0398
N3120 Y1.5031 Z-0.0394
N3125 Y1.5044 Z-0.0389
N3130 Y1.5058 Z-0.0387
N3135 G03 X1.2003 I-0.0125
N3140 G01 Y1.5044 Z-0.0389
N3145 Y1.5031 Z-0.0394
N3150 Y1.5018 Z-0.0398
N3155 Y1.5004 Z-0.04
N3160 Y1.4458 Z-0.0408
N3165 Y1.3923 Z-0.0432
N3170 Y1.35 Z-0.0462
N3175 Y1.3077 Z-0.0502
N3180 Y1.2799 Z-0.0534
N3185 Y1.2438 Z-0.0581
N3190 Y1.1951 Z-0.0656
N3195 Y1.1534 Z-0.0732
N3200 Y1.1266 Z-0.0786
N3205 Y1.0918 Z-0.0862
N3210 Y1.0431 Z-0.098
N3215 Y0.9964 Z-0.1107
N3220 Y0.9471 Z-0.1257
N3225 Y0.9333 Z-0.1301
N3230 Y0.8974 Z-0.1422
N3235 Y0.8902 Z-0.1448
N3240 Y0.8697 Z-0.153
N3245 Y0.8473 Z-0.1641
N3250 Y0.8288 Z-0.175
N3255 Y0.8106 Z-0.1875
N3260 Y0.791 Z-0.2033
N3265 Y0.774 Z-0.2193
N3270 Y0.757 Z-0.2381
N3275 Y0.7264 Z-0.2746
N3280 Y0.7195 Z-0.2815
N3285 Y0.7137 Z-0.2855
N3290 Y0.7068 Z-0.2883
N3295 Y0.6996 Z-0.2897
N3300 Y0.6335 Z-0.291
N3305 Y0.5823 Z-0.2931
N3310 Y0.5324 Z-0.2965
N3315 Y0.4977 Z-0.2996
N3320 Y0.4691 Z-0.3025
N3325 Y0.4168 Z-0.309
N3330 Y0.364 Z-0.3169
N3335 Y0.3057 Z-0.3273
N3340 Y0.247 Z-0.3395
N3345 Y0.1961 Z-0.3515
N3350 Y0.1381 Z-0.3669
N3355 Y0.0879 Z-0.3817
N3360 Y0.0293 Z-0.4008
N3365 Y-0.0004 Z-0.4113
N3370 Y-0.002 Z-0.4116
N3375 Y-0.0037
N3380 Y-0.0052 Z-0.411
N3385 Y-0.0066 Z-0.4106
N3390 Y-0.008 Z-0.4104
N3395 G02 X1.1753 I-0.0125
N3400 G01 Y-0.0066 Z-0.4106
N3405 Y-0.0052 Z-0.411
N3410 Y-0.0037 Z-0.4116
N3415 Y-0.002
N3420 Y-0.0004 Z-0.4113
N3425 Y0.0303 Z-0.4004
N3430 Y0.0873 Z-0.3819
N3435 Y0.1375 Z-0.3671
N3440 Y0.1955 Z-0.3517
N3445 Y0.2464 Z-0.3396
N3450 Y0.3051 Z-0.3274
N3455 Y0.3633 Z-0.317
N3460 Y0.4061 Z-0.3105
N3465 Y0.4339 Z-0.3068
N3470 Y0.4752 Z-0.3019
N3475 Y0.525 Z-0.2971
N3480 Y0.5605 Z-0.2945
N3485 Y0.5886 Z-0.2928
N3490 Y0.6368 Z-0.2909
N3495 Y0.6948 Z-0.29
N3500 Y0.7023 Z-0.2894
N3505 Y0.7095 Z-0.2874
N3510 Y0.7179 Z-0.2829
N3515 Y0.7231 Z-0.2781
N3520 Y0.728 Z-0.2727
N3525 Y0.7567 Z-0.2384
N3530 Y0.7729 Z-0.2205
N3535 Y0.7904 Z-0.2038
N3540 Y0.8074 Z-0.19
N3545 Y0.8275 Z-0.1758
N3550 Y0.8465 Z-0.1646
N3555 Y0.8533 Z-0.161
N3560 Y0.8687 Z-0.1535
N3565 Y0.8908 Z-0.1445
N3570 Y0.9397 Z-0.128
N3575 Y0.9914 Z-0.1122
N3580 Y1.0388 Z-0.0991
N3585 Y1.0734 Z-0.0905
N3590 Y1.1 Z-0.0843
N3595 Y1.1415 Z-0.0755
N3600 Y1.1765 Z-0.0689
N3605 Y1.2034 Z-0.0643
N3610 Y1.2453 Z-0.0578
N3615 Y1.2806 Z-0.0532
N3620 Y1.3077 Z-0.0502
N3625 Y1.35 Z-0.0462
N3630 Y1.3923 Z-0.0432
N3635 Y1.4458 Z-0.0408
N3640 Y1.5004 Z-0.04
N3645 Y1.5018 Z-0.0398
N3650 Y1.5031 Z-0.0394
N3655 Y1.5044 Z-0.0389
N3660 Y1.5058 Z-0.0387
N3665 G03 X1.1503 I-0.0125
N3670 G01 Y1.5044 Z-0.0389
N3675 Y1.5031 Z-0.0394
N3680 Y1.5018 Z-0.0398
N3685 Y1.5004 Z-0.04
N3690 Y1.4458 Z-0.0408
N3695 Y1.3923 Z-0.0432
N3700 Y1.35 Z-0.0462
N3705 Y1.3077 Z-0.0502
N3710 Y1.2806 Z-0.0532
N3715 Y1.2453 Z-0.0578
N3720 Y1.2041 Z-0.0641
N3725 Y1.1773 Z-0.0688
N3730 Y1.143 Z-0.0752
N3735 Y1.1015 Z-0.084
N3740 Y1.0749 Z-0.0902
N3745 Y1.0403 Z-0.0987
N3750 Y0.9986 Z-0.1101
N3755 Y0.9572 Z-0.1226
N3760 Y0.9362 Z-0.1292
N3765 Y0.8906 Z-0.1446
N3770 Y0.874 Z-0.1512
N3775 Y0.8669 Z-0.1544
N3780 Y0.8539 Z-0.1607
N3785 Y0.8471 Z-0.1642
N3790 Y0.8281 Z-0.1754
N3795 Y0.8074 Z-0.19
N3800 Y0.7909 Z-0.2034
N3805 Y0.7748 Z-0.2186
N3810 Y0.7573 Z-0.2377
N3815 Y0.7246 Z-0.2766
N3820 Y0.7193 Z-0.2817
N3825 Y0.7135 Z-0.2856
N3830 Y0.7095 Z-0.2874
N3835 Y0.7024 Z-0.2894
N3840 Y0.6949 Z-0.29
N3845 Y0.6368 Z-0.2909
N3850 Y0.5887 Z-0.2928
N3855 Y0.5606 Z-0.2945
N3860 Y0.5251 Z-0.2971
N3865 Y0.4821 Z-0.3011
N3870 Y0.4482 Z-0.305
N3875 Y0.4129 Z-0.3095
N3880 Y0.3634 Z-0.317
N3885 Y0.3052 Z-0.3274
N3890 Y0.2465 Z-0.3396
N3895 Y0.1955 Z-0.3517
N3900 Y0.1376 Z-0.367
N3905 Y0.0874 Z-0.3819
N3910 Y0.0303 Z-0.4004
N3915 Y-0.0004 Z-0.4113
N3920 Y-0.0017 Z-0.4118
N3925 X1.15 Y-0.003 Z-0.4122
N3930 X1.1496 Y-0.0043 Z-0.4127
N3935 X1.1491 Y-0.0055 Z-0.4131
N3940 X1.1484 Y-0.0067 Z-0.4135
N3945 X1.1476 Y-0.0077 Z-0.4139
N3950 X1.1467 Y-0.0087 Z-0.4143
N3955 X1.1456 Y-0.0096 Z-0.4146
N3960 X1.1445 Y-0.0104 Z-0.4148
N3965 X1.1433 Y-0.011 Z-0.4151
N3970 X1.142 Y-0.0115 Z-0.4152
N3975 X1.1406 Y-0.0119 Z-0.4154
N3980 X1.1392 Y-0.0121
N3985 X1.1378 Y-0.0122 Z-0.4155
N3990 X1.1364 Y-0.0121 Z-0.4154
N3995 X1.1351 Y-0.0119
N4000 X1.1337 Y-0.0115 Z-0.4152
N4005 X1.1324 Y-0.011 Z-0.4151
N4010 X1.1312 Y-0.0104 Z-0.4148
N4015 X1.13 Y-0.0096 Z-0.4146
N4020 X1.129 Y-0.0087 Z-0.4143
N4025 X1.1281 Y-0.0077 Z-0.4139
N4030 X1.1273 Y-0.0067 Z-0.4135
N4035 X1.1266 Y-0.0055 Z-0.4131
N4040 X1.126 Y-0.0043 Z-0.4127
N4045 X1.1257 Y-0.003 Z-0.4122
N4050 X1.1254 Y-0.0017 Z-0.4118
N4055 X1.1253 Y-0.0004 Z-0.4113
N4060 Y0.0338 Z-0.3992
N4065 Y0.0836 Z-0.383
N4070 Y0.1411 Z-0.3661
N4075 Y0.1917 Z-0.3526
N4080 Y0.2459 Z-0.3397
N4085 Y0.3005 Z-0.3283
N4090 Y0.3583 Z-0.3178
N4095 Y0.4024 Z-0.311
N4100 Y0.4352 Z-0.3066
N4105 Y0.4766 Z-0.3017
N4110 Y0.512 Z-0.2983
N4115 Y0.54 Z-0.2959
N4120 Y0.5821 Z-0.2931
N4125 Y0.6335 Z-0.291
N4130 Y0.6995 Z-0.2898
N4135 Y0.7067 Z-0.2883
N4140 Y0.7136 Z-0.2855
N4145 Y0.7195 Z-0.2816
N4150 Y0.726 Z-0.2751
N4155 Y0.7573 Z-0.2377
N4160 Y0.7718 Z-0.2217
N4165 Y0.7899 Z-0.2043
N4170 Y0.8085 Z-0.1891
N4175 Y0.8283 Z-0.1753
N4180 Y0.8501 Z-0.1626
N4185 Y0.8727 Z-0.1517
N4190 Y0.8896 Z-0.145
N4195 Y0.8968 Z-0.1424
N4200 Y0.9328 Z-0.1303
N4205 Y0.9465 Z-0.1259
N4210 Y0.9958 Z-0.1109
N4215 Y1.0368 Z-0.0997
N4220 Y1.0772 Z-0.0896
N4225 Y1.1038 Z-0.0835
N4230 Y1.1445 Z-0.0749
N4235 Y1.1788 Z-0.0685
N4240 Y1.2057 Z-0.0639
N4245 Y1.2468 Z-0.0576
N4250 Y1.2814 Z-0.0531
N4255 Y1.3085 Z-0.0501
N4260 Y1.35 Z-0.0462
N4265 Y1.3923 Z-0.0432
N4270 Y1.4458 Z-0.0408
N4275 Y1.5004 Z-0.04
N4280 Y1.5018 Z-0.0398
N4285 Y1.5031 Z-0.0394
N4290 Y1.5044 Z-0.0389
N4295 Y1.5058 Z-0.0387
N4300 G03 X1.1003 I-0.0125
N4305 G01 Y1.5044 Z-0.0389
N4310 Y1.5031 Z-0.0394
N4315 Y1.5018 Z-0.0398
N4320 Y1.5004 Z-0.04
N4325 Y1.4458 Z-0.0408
N4330 Y1.3923 Z-0.0432
N4335 Y1.35 Z-0.0462
N4340 Y1.3085 Z-0.0501
N4345 Y1.2814 Z-0.0531
N4350 Y1.2468 Z-0.0576
N4355 Y1.2057 Z-0.0639
N4360 Y1.1788 Z-0.0685
N4365 Y1.1445 Z-0.0749
N4370 Y1.1038 Z-0.0835
N4375 Y1.0772 Z-0.0896
N4380 Y1.0434 Z-0.098
N4385 Y1.0024 Z-0.1091
N4390 Y0.9828 Z-0.1148
N4395 Y0.9392 Z-0.1282
N4400 Y0.8968 Z-0.1424
N4405 Y0.8896 Z-0.145
N4410 Y0.8727 Z-0.1517
N4415 Y0.8501 Z-0.1626
N4420 Y0.8283 Z-0.1753
N4425 Y0.8085 Z-0.1891
N4430 Y0.7899 Z-0.2043
N4435 Y0.7718 Z-0.2217
N4440 Y0.7573 Z-0.2377
N4445 Y0.726 Z-0.2751
N4450 Y0.7194 Z-0.2816
N4455 Y0.7136 Z-0.2856
N4460 Y0.7067 Z-0.2883
N4465 Y0.6995 Z-0.2898
N4470 Y0.6335 Z-0.291
N4475 Y0.5858 Z-0.293
N4480 Y0.5475 Z-0.2954
N4485 Y0.512 Z-0.2983
N4490 Y0.4766 Z-0.3017
N4495 Y0.4352 Z-0.3066
N4500 Y0.4074 Z-0.3103
N4505 Y0.3596 Z-0.3176
N4510 Y0.3005 Z-0.3283
N4515 Y0.2459 Z-0.3397
N4520 Y0.1917 Z-0.3526
N4525 Y0.1411 Z-0.3661
N4530 Y0.0836 Z-0.383
N4535 Y0.0338 Z-0.3992
N4540 Y-0.0004 Z-0.4113
N4545 Y-0.002 Z-0.4116
N4550 Y-0.0037
N4555 Y-0.0052 Z-0.411
N4560 Y-0.0066 Z-0.4105
N4565 Y-0.008 Z-0.4104
N4570 G02 X1.0753 I-0.0125
N4575 G01 Y-0.0066 Z-0.4105
N4580 Y-0.0053 Z-0.411
N4585 Y-0.0052
N4590 Y-0.0037 Z-0.4116
N4595 Y-0.002
N4600 Y-0.0004 Z-0.4113
N4605 Y0.0295 Z-0.4007
N4610 Y0.0825 Z-0.3834
N4615 Y0.136 Z-0.3675
N4620 Y0.1915 Z-0.3527
N4625 Y0.2515 Z-0.3385
N4630 Y0.3028 Z-0.3278
N4635 Y0.3252 Z-0.3238
N4640 Y0.3677 Z-0.3163
N4645 Y0.4097 Z-0.31
N4650 Y0.4443 Z-0.3055
N4655 Y0.4781 Z-0.3016
N4660 Y0.5203 Z-0.2975
N4665 Y0.5479 Z-0.2954
N4670 Y0.5892 Z-0.2928
N4675 Y0.6335 Z-0.291
N4680 Y0.6995 Z-0.2898
N4685 Y0.7067 Z-0.2884
N4690 Y0.7136 Z-0.2856
N4695 Y0.7194 Z-0.2816
N4700 Y0.726 Z-0.2751
N4705 Y0.7573 Z-0.2377
N4710 Y0.7718 Z-0.2217
N4715 Y0.7899 Z-0.2043
N4720 Y0.8085 Z-0.1891
N4725 Y0.8283 Z-0.1753
N4730 Y0.8501 Z-0.1626
N4735 Y0.8727 Z-0.1517
N4740 Y0.8896 Z-0.145
N4745 Y0.8968 Z-0.1424
N4750 Y0.9328 Z-0.1303
N4755 Y0.9465 Z-0.1259
N4760 Y0.9958 Z-0.1109
N4765 Y1.0368 Z-0.0997
N4770 Y1.064 Z-0.0928
N4775 Y1.0971 Z-0.085
N4780 Y1.1312 Z-0.0776
N4785 Y1.1654 Z-0.0709
N4790 Y1.1989 Z-0.065
N4795 Y1.2401 Z-0.0586
N4800 Y1.2746 Z-0.054
N4805 Y1.3085 Z-0.0501
N4810 Y1.35 Z-0.0462
N4815 Y1.3923 Z-0.0432
N4820 Y1.4458 Z-0.0408
N4825 Y1.5004 Z-0.04
N4830 Y1.5018 Z-0.0398
N4835 Y1.5031 Z-0.0394
N4840 Y1.5044 Z-0.0389
N4845 Y1.5058 Z-0.0387
N4850 G03 X1.0503 I-0.0125
N4855 G01 Y1.5044 Z-0.0389
N4860 Y1.5031 Z-0.0394
N4865 Y1.5018 Z-0.0398
N4870 Y1.5004 Z-0.04
N4875 Y1.4458 Z-0.0408
N4880 Y1.3923 Z-0.0432
N4885 Y1.35 Z-0.0462
N4890 Y1.3085 Z-0.0501
N4895 Y1.2746 Z-0.054
N4900 Y1.2401 Z-0.0586
N4905 Y1.2057 Z-0.0639
N4910 Y1.1721 Z-0.0697
N4915 Y1.1379 Z-0.0762
N4920 Y1.0971 Z-0.085
N4925 Y1.0639 Z-0.0928
N4930 Y1.0302 Z-0.1014
N4935 Y0.9958 Z-0.1109
N4940 Y0.9465 Z-0.1259
N4945 Y0.9328 Z-0.1303
N4950 Y0.8968 Z-0.1424
N4955 Y0.8896 Z-0.145
N4960 Y0.8727 Z-0.1517
N4965 Y0.8501 Z-0.1626
N4970 Y0.8283 Z-0.1753
N4975 Y0.8085 Z-0.1891
N4980 Y0.7899 Z-0.2043
N4985 Y0.7718 Z-0.2217
N4990 Y0.7573 Z-0.2377
N4995 Y0.726 Z-0.2751
N5000 Y0.7194 Z-0.2816
N5005 Y0.7135 Z-0.2856
N5010 Y0.7067 Z-0.2884
N5015 Y0.6994 Z-0.2898
N5020 Y0.6342 Z-0.2909
N5025 Y0.5903 Z-0.2927
N5030 Y0.5622 Z-0.2944
N5035 Y0.5266 Z-0.297
N5040 Y0.4844 Z-0.3009
N5045 Y0.449 Z-0.3049
N5050 Y0.4144 Z-0.3093
N5055 Y0.3725 Z-0.3156
N5060 Y0.3381 Z-0.3215
N5065 Y0.3008 Z-0.3282
N5070 Y0.2495 Z-0.3389
N5075 Y0.1912 Z-0.3528
N5080 Y0.1406 Z-0.3662
N5085 Y0.0831 Z-0.3832
N5090 Y0.0333 Z-0.3994
N5095 Y-0.0004 Z-0.4113
N5100 Y-0.002 Z-0.4116
N5105 Y-0.0037
N5110 Y-0.0052 Z-0.411
N5115 Y-0.0066 Z-0.4106
N5120 Y-0.008 Z-0.4104
N5125 G02 X1.0254 I-0.0125
N5130 G01 Y-0.0066 Z-0.4106
N5135 Y-0.0053 Z-0.411
N5140 Y-0.0052
N5145 Y-0.0037 Z-0.4116
N5150 Y-0.002
N5155 Y-0.0004 Z-0.4113
N5160 Y0.0297 Z-0.4006
N5165 Y0.0867 Z-0.3821
N5170 Y0.1369 Z-0.3672
N5175 Y0.1949 Z-0.3518
N5180 Y0.2458 Z-0.3398
N5185 Y0.3045 Z-0.3275
N5190 Y0.3628 Z-0.3171
N5195 Y0.3905 Z-0.3128
N5200 Y0.4242 Z-0.308
N5205 Y0.4663 Z-0.3028
N5210 Y0.4942 Z-0.2999
N5215 Y0.5297 Z-0.2967
N5220 Y0.5644 Z-0.2942
N5225 Y0.5933 Z-0.2926
N5230 Y0.6338 Z-0.2909
N5235 Y0.6994 Z-0.2898
N5240 Y0.7066 Z-0.2884
N5245 Y0.7135 Z-0.2856
N5250 Y0.7194 Z-0.2817
N5255 Y0.7265 Z-0.2745
N5260 Y0.7571 Z-0.2379
N5265 Y0.7741 Z-0.2192
N5270 Y0.7911 Z-0.2032
N5275 Y0.8107 Z-0.1874
N5280 Y0.829 Z-0.1749
N5285 Y0.8473 Z-0.1641
N5290 Y0.8699 Z-0.1529
N5295 Y0.8903 Z-0.1447
N5300 Y0.8975 Z-0.1422
N5305 Y0.9335 Z-0.1301
N5310 Y0.9472 Z-0.1257
N5315 Y0.9966 Z-0.1107
N5320 Y1.0367 Z-0.0997
N5325 Y1.0705 Z-0.0912
N5330 Y1.1038 Z-0.0835
N5335 Y1.1378 Z-0.0762
N5340 Y1.1721 Z-0.0697
N5345 Y1.2056 Z-0.0639
N5350 Y1.2401 Z-0.0586
N5355 Y1.273 Z-0.0542
N5360 Y1.3085 Z-0.0501
N5365 Y1.3466 Z-0.0465
N5370 Y1.3855 Z-0.0436
N5375 Y1.4458 Z-0.0408
N5380 Y1.5004 Z-0.04
N5385 Y1.5018 Z-0.0398
N5390 Y1.5031 Z-0.0394
N5395 Y1.5044 Z-0.0389
N5400 Y1.5058 Z-0.0387
N5405 G03 X1.0004 I-0.0125
N5410 G01 Y1.5044 Z-0.0389
N5415 Y1.5031 Z-0.0394
N5420 Y1.5018 Z-0.0398
N5425 Y1.5004 Z-0.04
N5430 Y1.4458 Z-0.0408
N5435 Y1.3923 Z-0.0432
N5440 Y1.3515 Z-0.046
N5445 Y1.3176 Z-0.0492
N5450 Y1.2837 Z-0.0529
N5455 Y1.2432 Z-0.0581
N5460 Y1.202 Z-0.0645
N5465 Y1.1743 Z-0.0693
N5470 Y1.1409 Z-0.0756
N5475 Y1.1001 Z-0.0843
N5480 Y1.0669 Z-0.0921
N5485 Y1.0339 Z-0.1004
N5490 Y1.0003 Z-0.1096
N5495 Y0.9661 Z-0.1199
N5500 Y0.9444 Z-0.1265
N5505 Y0.8947 Z-0.1431
N5510 Y0.8812 Z-0.1484
N5515 Y0.8741 Z-0.1511
N5520 Y0.8671 Z-0.1543
N5525 Y0.8541 Z-0.1606
N5530 Y0.8473 Z-0.1641
N5535 Y0.8276 Z-0.1758
N5540 Y0.8073 Z-0.1901
N5545 Y0.7911 Z-0.2033
N5550 Y0.7749 Z-0.2185
N5555 Y0.7576 Z-0.2374
N5560 Y0.7247 Z-0.2765
N5565 Y0.7194 Z-0.2816
N5570 Y0.7136 Z-0.2856
N5575 Y0.7098 Z-0.2873
N5580 Y0.7028 Z-0.2893
N5585 Y0.6993 Z-0.2898
N5590 Y0.6336 Z-0.291
N5595 Y0.5932 Z-0.2926
N5600 Y0.5575 Z-0.2947
N5605 Y0.522 Z-0.2974
N5610 Y0.4873 Z-0.3006
N5615 Y0.4587 Z-0.3037
N5620 Y0.4173 Z-0.3089
N5625 Y0.3761 Z-0.315
N5630 Y0.3492 Z-0.3195
N5635 Y0.3011 Z-0.3282
N5640 Y0.2465 Z-0.3396
N5645 Y0.1955 Z-0.3517
N5650 Y0.1376 Z-0.367
N5655 Y0.0874 Z-0.3819
N5660 Y0.0303 Z-0.4004
N5665 Y-0.0004 Z-0.4113
N5670 Y-0.0014 Z-0.4116
N5675 Y-0.0025 Z-0.4117
N5680 G02 X0.9754 I-0.0125
N5685 G01 Y-0.0014 Z-0.4116
N5690 Y-0.0004 Z-0.4113
N5695 Y0.0297 Z-0.4006
N5700 Y0.0867 Z-0.3821
N5705 Y0.1369 Z-0.3672
N5710 Y0.1949 Z-0.3518
N5715 Y0.2458 Z-0.3398
N5720 Y0.3004 Z-0.3283
N5725 Y0.3486 Z-0.3196
N5730 Y0.3719 Z-0.3156
N5735 Y0.4167 Z-0.309
N5740 Y0.4512 Z-0.3046
N5745 Y0.4866 Z-0.3007
N5750 Y0.5213 Z-0.2974
N5755 Y0.5569 Z-0.2947
N5760 Y0.5925 Z-0.2926
N5765 Y0.6336 Z-0.291
N5770 Y0.6992 Z-0.2898
N5775 Y0.7032 Z-0.2892
N5780 Y0.7102 Z-0.2871
N5785 Y0.7141 Z-0.2853
N5790 Y0.7199 Z-0.2812
N5795 Y0.7251 Z-0.276
N5800 Y0.7562 Z-0.2391
N5805 Y0.7728 Z-0.2206
N5810 Y0.7902 Z-0.204
N5815 Y0.8089 Z-0.1888
N5820 Y0.8269 Z-0.1763
N5825 Y0.848 Z-0.1637
N5830 Y0.8678 Z-0.1539
N5835 Y0.8749 Z-0.1508
N5840 Y0.8819 Z-0.1481
N5845 Y0.8955 Z-0.1429
N5850 Y0.9451 Z-0.1263
N5855 Y0.9742 Z-0.1174
N5860 Y1.001 Z-0.1094
N5865 Y1.0413 Z-0.0985
N5870 Y1.0743 Z-0.0903
N5875 Y1.1075 Z-0.0826
N5880 Y1.1416 Z-0.0755
N5885 Y1.1818 Z-0.0679
N5890 Y1.2154 Z-0.0623
N5895 Y1.2499 Z-0.0572
N5900 Y1.2837 Z-0.0529
N5905 Y1.3176 Z-0.0491
N5910 Y1.3515 Z-0.046
N5915 Y1.3923 Z-0.0432
N5920 Y1.4458 Z-0.0408
N5925 Y1.5004 Z-0.04
N5930 Y1.5018 Z-0.0398
N5935 Y1.5031 Z-0.0394
N5940 Y1.5044 Z-0.0389
N5945 Y1.5058 Z-0.0387
N5950 G03 X0.9504 I-0.0125
N5955 G01 Y1.5044 Z-0.0389
N5960 Y1.5031 Z-0.0394
N5965 Y1.5018 Z-0.0398
N5970 Y1.5004 Z-0.04
N5975 Y1.4458 Z-0.0408
N5980 Y1.3923 Z-0.0432
N5985 Y1.3515 Z-0.046
N5990 Y1.3176 Z-0.0491
N5995 Y1.2837 Z-0.0528
N6000 Y1.2499 Z-0.0572
N6005 Y1.2154 Z-0.0623
N6010 Y1.1803 Z-0.0682
N6015 Y1.1401 Z-0.0758
N6020 Y1.106 Z-0.083
N6025 Y1.0728 Z-0.0906
N6030 Y1.0397 Z-0.0989
N6035 Y0.9995 Z-0.1099
N6040 Y0.9719 Z-0.1181
N6045 Y0.9429 Z-0.127
N6050 Y0.8908 Z-0.1445
N6055 Y0.8698 Z-0.1529
N6060 Y0.8534 Z-0.1609
N6065 Y0.8465 Z-0.1645
N6070 Y0.8276 Z-0.1758
N6075 Y0.8073 Z-0.19
N6080 Y0.7904 Z-0.2038
N6085 Y0.7729 Z-0.2205
N6090 Y0.7568 Z-0.2384
N6095 Y0.728 Z-0.2727
N6100 Y0.7231 Z-0.2781
N6105 Y0.7169 Z-0.2836
N6110 Y0.712 Z-0.2863
N6115 Y0.7096 Z-0.2874
N6120 Y0.7024 Z-0.2894
N6125 Y0.6949 Z-0.29
N6130 Y0.6407 Z-0.2907
N6135 Y0.6105 Z-0.2918
N6140 Y0.575 Z-0.2936
N6145 Y0.5387 Z-0.296
N6150 Y0.5032 Z-0.299
N6155 Y0.467 Z-0.3028
N6160 Y0.4324 Z-0.3069
N6165 Y0.3986 Z-0.3116
N6170 Y0.3642 Z-0.3169
N6175 Y0.306 Z-0.3272
N6180 Y0.2472 Z-0.3394
N6185 Y0.1963 Z-0.3515
N6190 Y0.1367 Z-0.3673
N6195 Y0.0889 Z-0.3814
N6200 Y0.0607 Z-0.3905
N6205 Y0.0286 Z-0.401
N6210 Y-0.0004 Z-0.4113
N6215 Y-0.002 Z-0.4116
N6220 Y-0.0037
N6225 Y-0.0052 Z-0.411
N6230 Y-0.0053
N6235 Y-0.0066 Z-0.4105
N6240 Y-0.008 Z-0.4104
N6245 G02 X0.9254 I-0.0125
N6250 G01 Y-0.0066 Z-0.4105
N6255 Y-0.0052 Z-0.411
N6260 Y-0.0037 Z-0.4115
N6265 Y-0.002 Z-0.4116
N6270 Y-0.0004 Z-0.4113
N6275 Y0.0342 Z-0.3991
N6280 Y0.084 Z-0.3829
N6285 Y0.1415 Z-0.3659
N6290 Y0.1921 Z-0.3525
N6295 Y0.2505 Z-0.3387
N6300 Y0.3017 Z-0.3281
N6305 Y0.3607 Z-0.3174
N6310 Y0.3952 Z-0.3121
N6315 Y0.4323 Z-0.3069
N6320 Y0.471 Z-0.3023
N6325 Y0.5057 Z-0.2989
N6330 Y0.5512 Z-0.2962
N6335 Y0.6117 Z-0.2921
N6340 Y0.6407 Z-0.2907
N6345 Y0.6949 Z-0.29
N6350 Y0.7024 Z-0.2894
N6355 Y0.7096 Z-0.2874
N6360 Y0.7121 Z-0.2863
N6365 Y0.7179 Z-0.2829
N6370 Y0.7232 Z-0.278
N6375 Y0.7281 Z-0.2726
N6380 Y0.7568 Z-0.2383
N6385 Y0.773 Z-0.2204
N6390 Y0.7905 Z-0.2038
N6395 Y0.8074 Z-0.19
N6400 Y0.8276 Z-0.1757
N6405 Y0.8466 Z-0.1645
N6410 Y0.8534 Z-0.1609
N6415 Y0.8684 Z-0.1536
N6420 Y0.8907 Z-0.1446
N6425 Y0.941 Z-0.1276
N6430 Y0.9973 Z-0.1105
N6435 Y1.0367 Z-0.0997
N6440 Y1.0698 Z-0.0914
N6445 Y1.1037 Z-0.0835
N6450 Y1.1337 Z-0.0771
N6455 Y1.1754 Z-0.07
N6460 Y1.2357 Z-0.0597
N6465 Y1.265 Z-0.0552
N6470 Y1.304 Z-0.0505
N6475 Y1.3447 Z-0.0466
N6480 Y1.3855 Z-0.0436
N6485 Y1.4458 Z-0.0408
N6490 Y1.5004 Z-0.04
N6495 Y1.5018 Z-0.0398
N6500 Y1.5031 Z-0.0394
N6505 Y1.5044 Z-0.0389
N6510 Y1.5058 Z-0.0387
N6515 G03 X0.9004 I-0.0125
N6520 G01 Y1.5044 Z-0.0389
N6525 Y1.5031 Z-0.0394
N6530 Y1.5018 Z-0.0398
N6535 Y1.5004 Z-0.04
N6540 Y1.4458 Z-0.0408
N6545 Y1.3855 Z-0.0436
N6550 Y1.3447 Z-0.0466
N6555 Y1.3108 Z-0.0498
N6560 Y1.2939 Z-0.0525
N6565 Y1.274 Z-0.0572
N6570 Y1.2256 Z-0.0714
N6575 Y1.2073 Z-0.0758
N6580 Y1.191 Z-0.0786
N6585 Y1.1736 Z-0.0804
N6590 Y1.1469 Z-0.0819
N6595 Y1.1183 Z-0.0833
N6600 Y1.1013 Z-0.085
N6605 Y1.0845 Z-0.0879
N6610 Y1.0513 Z-0.0959
N6615 Y1.0184 Z-0.1046
N6620 Y0.9921 Z-0.112
N6625 Y0.9388 Z-0.1283
N6630 Y0.8907 Z-0.1446
N6635 Y0.8715 Z-0.1522
N6640 Y0.8533 Z-0.161
N6645 Y0.8465 Z-0.1646
N6650 Y0.8275 Z-0.1758
N6655 Y0.8073 Z-0.19
N6660 Y0.7904 Z-0.2039
N6665 Y0.7728 Z-0.2206
N6670 Y0.7567 Z-0.2385
N6675 Y0.7279 Z-0.2727
N6680 Y0.7231 Z-0.2782
N6685 Y0.7178 Z-0.283
N6690 Y0.712 Z-0.2864
N6695 Y0.7096 Z-0.2874
N6700 Y0.7024 Z-0.2894
N6705 Y0.6949 Z-0.29
N6710 Y0.6717 Z-0.2904
N6715 Y0.6547 Z-0.292
N6720 Y0.6345 Z-0.2952
N6725 Y0.5962 Z-0.3026
N6730 Y0.5787 Z-0.3052
N6735 Y0.5669 Z-0.3062
N6740 Y0.5558 Z-0.3067
N6745 Y0.5418 Z-0.3066
N6750 Y0.5205 Z-0.3056
N6755 Y0.4887 Z-0.3036
N6760 Y0.4694 Z-0.3034
N6765 Y0.4549 Z-0.3042
N6770 Y0.4237 Z-0.3081
N6775 Y0.3899 Z-0.3129
N6780 Y0.3623 Z-0.3172
N6785 Y0.3016 Z-0.3281
N6790 Y0.2453 Z-0.3399
N6795 Y0.1911 Z-0.3528
N6800 Y0.1372 Z-0.3672
N6805 Y0.087 Z-0.382
N6810 Y0.0299 Z-0.4005
N6815 Y-0.0004 Z-0.4113
N6820 Y-0.002 Z-0.4116
N6825 Y-0.0037
N6830 Y-0.0052 Z-0.411
N6835 Y-0.0066 Z-0.4106
N6840 Y-0.008 Z-0.4104
N6845 G02 X0.8754 I-0.0125
N6850 G01 Y-0.0066 Z-0.4106
N6855 Y-0.0052 Z-0.411
N6860 Y-0.0037 Z-0.4116
N6865 Y-0.002
N6870 Y-0.0004 Z-0.4113
N6875 Y0.0298 Z-0.4006
N6880 Y0.0868 Z-0.382
N6885 Y0.137 Z-0.3672
N6890 Y0.1909 Z-0.3528
N6895 Y0.2452 Z-0.3399
N6900 Y0.3014 Z-0.3281
N6905 Y0.3621 Z-0.3172
N6910 Y0.3898 Z-0.3129
N6915 Y0.4235 Z-0.3081
N6920 Y0.4364 Z-0.3073
N6925 Y0.4478 Z-0.3076
N6930 Y0.4628 Z-0.3094
N6935 Y0.4776 Z-0.3126
N6940 Y0.4913 Z-0.3167
N6945 Y0.5075 Z-0.3228
N6950 Y0.5224 Z-0.3294
N6955 Y0.5416 Z-0.3387
N6960 Y0.5534 Z-0.3445
N6965 Y0.5619 Z-0.3482
N6970 Y0.5707 Z-0.349
N6975 Y0.5789 Z-0.3455
N6980 Y0.5805 Z-0.3445
N6985 Y0.5882 Z-0.3397
N6990 Y0.5991 Z-0.3323
N6995 Y0.616 Z-0.3213
N7000 Y0.6319 Z-0.3121
N7005 Y0.6448 Z-0.3056
N7010 Y0.6578 Z-0.3001
N7015 Y0.6708 Z-0.2957
N7020 Y0.6832 Z-0.2927
N7025 Y0.7006 Z-0.2897
N7030 Y0.7096 Z-0.2874
N7035 Y0.7121 Z-0.2863
N7040 Y0.718 Z-0.2829
N7045 Y0.7232 Z-0.278
N7050 Y0.7281 Z-0.2726
N7055 Y0.7568 Z-0.2383
N7060 Y0.773 Z-0.2204
N7065 Y0.7905 Z-0.2038
N7070 Y0.8073 Z-0.19
N7075 Y0.8277 Z-0.1757
N7080 Y0.8466 Z-0.1645
N7085 Y0.8535 Z-0.1609
N7090 Y0.8699 Z-0.1529
N7095 Y0.8905 Z-0.1447
N7100 Y0.9389 Z-0.1283
N7105 Y0.9923 Z-0.1119
N7110 Y1.0185 Z-0.1046
N7115 Y1.0521 Z-0.0957
N7120 Y1.0649 Z-0.0932
N7125 Y1.077 Z-0.092
N7130 Y1.0902 Z-0.0919
N7135 Y1.1054 Z-0.0931
N7140 Y1.1196 Z-0.0953
N7145 Y1.1369 Z-0.0993
N7150 Y1.1582 Z-0.1057
N7155 Y1.1909 Z-0.1174
N7160 Y1.1985 Z-0.1196
N7165 Y1.2047 Z-0.1201
N7170 Y1.2106 Z-0.1183
N7175 Y1.2154 Z-0.1153
N7180 Y1.2214 Z-0.1107
N7185 Y1.2377 Z-0.0973
N7190 Y1.2557 Z-0.0833
N7195 Y1.2708 Z-0.0729
N7200 Y1.2845 Z-0.0649
N7205 Y1.2984 Z-0.0582
N7210 Y1.3112 Z-0.0533
N7215 Y1.3244 Z-0.0496
N7220 Y1.3345 Z-0.0477
N7225 Y1.3481 Z-0.0463
N7230 Y1.3855 Z-0.0436
N7235 Y1.4458 Z-0.0408
N7240 Y1.5004 Z-0.04
N7245 Y1.5018 Z-0.0398
N7250 Y1.5031 Z-0.0394
N7255 Y1.5044 Z-0.0389
N7260 Y1.5058 Z-0.0387
N7265 G03 X0.8504 I-0.0125
N7270 G01 Y1.5044 Z-0.0389
N7275 Y1.5031 Z-0.0394
N7280 Y1.5018 Z-0.0398
N7285 Y1.5004 Z-0.04
N7290 Y1.4458 Z-0.0408
N7295 Y1.3855 Z-0.0436
N7300 Y1.3583 Z-0.0455
N7305 Y1.3482 Z-0.0471
N7310 Y1.3382 Z-0.0499
N7315 Y1.3286 Z-0.0537
N7320 Y1.3194 Z-0.0585
N7325 Y1.3107 Z-0.0642
N7330 Y1.3026 Z-0.071
N7335 Y1.2952 Z-0.0786
N7340 Y1.2906 Z-0.0847
N7345 Y1.2866 Z-0.0915
N7350 Y1.2848 Z-0.0951
N7355 Y1.2826 Z-0.1016
N7360 Y1.2814 Z-0.1084
N7365 Y1.2813 Z-0.1118
N7370 Y1.2811 Z-0.54
N7375 Y1.1327
N7380 Y1.1324 Z-0.1463
N7385 Y1.1321 Z-0.1435
N7390 Y1.1311 Z-0.1392
N7395 Y1.1302 Z-0.1363
N7400 Y1.1272 Z-0.1304
N7405 Y1.1227 Z-0.124
N7410 Y1.1179 Z-0.1191
N7415 Y1.1123 Z-0.1146
N7420 Y1.1046 Z-0.1097
N7425 Y1.0963 Z-0.1057
N7430 Y1.0857 Z-0.1019
N7435 Y1.0748 Z-0.0993
N7440 Y1.0635 Z-0.0979
N7445 Y1.0513 Z-0.0978
N7450 Y1.0408 Z-0.099
N7455 Y1.0291 Z-0.1017
N7460 Y0.9962 Z-0.1108
N7465 Y0.9469 Z-0.1258
N7470 Y0.9332 Z-0.1302
N7475 Y0.8972 Z-0.1423
N7480 Y0.89 Z-0.1449
N7485 Y0.8696 Z-0.1531
N7490 Y0.8473 Z-0.1641
N7495 Y0.8287 Z-0.1751
N7500 Y0.8136 Z-0.1855
N7505 Y0.8073 Z-0.19
N7510 Y0.7896 Z-0.2046
N7515 Y0.7716 Z-0.2218
N7520 Y0.7563 Z-0.2389
N7525 Y0.7263 Z-0.2747
N7530 Y0.7192 Z-0.2818
N7535 Y0.7162 Z-0.2841
N7540 Y0.71 Z-0.2872
N7545 Y0.6995 Z-0.2912
N7550 Y0.6902 Z-0.2957
N7555 Y0.6784 Z-0.3029
N7560 Y0.6683 Z-0.3106
N7565 Y0.6604 Z-0.3177
N7570 Y0.6564 Z-0.322
N7575 Y0.6517 Z-0.3282
N7580 Y0.648 Z-0.3347
N7585 Y0.6464 Z-0.3383
N7590 Y0.645 Z-0.3425
N7595 Y0.6439 Z-0.3475
N7600 Y0.6436 Z-0.3525
N7605 Z-0.54
N7610 Y0.4951
N7615 Y0.4949 Z-0.3631
N7620 Y0.4936 Z-0.3564
N7625 Y0.4926 Z-0.3534
N7630 Y0.4907 Z-0.349
N7635 Y0.4874 Z-0.3435
N7640 Y0.4831 Z-0.3381
N7645 Y0.4754 Z-0.3309
N7650 Y0.4699 Z-0.3268
N7655 Y0.4604 Z-0.3211
N7660 Y0.4501 Z-0.3166
N7665 Y0.4395 Z-0.3132
N7670 Y0.4284 Z-0.311
N7675 Y0.4171 Z-0.3101
N7680 Y0.406 Z-0.3106
N7685 Y0.3756 Z-0.315
N7690 Y0.3547 Z-0.3185
N7695 Y0.3015 Z-0.3281
N7700 Y0.2452 Z-0.3399
N7705 Y0.191 Z-0.3528
N7710 Y0.1371 Z-0.3672
N7715 Y0.0869 Z-0.382
N7720 Y0.0298 Z-0.4005
N7725 Y-0.0004 Z-0.4113
N7730 Y-0.002 Z-0.4116
N7735 Y-0.0037
N7740 Y-0.0052 Z-0.411
N7745 Y-0.0066 Z-0.4106
N7750 Y-0.008 Z-0.4104
N7755 G02 X0.8254 I-0.0125
N7760 G01 Y-0.0066 Z-0.4106
N7765 Y-0.0052 Z-0.411
N7770 Y-0.0037 Z-0.4116
N7775 Y-0.002
N7780 Y-0.0004 Z-0.4113
N7785 Y0.0326 Z-0.3996
N7790 Y0.0824 Z-0.3834
N7795 Y0.1399 Z-0.3664
N7800 Y0.1905 Z-0.3529
N7805 Y0.2464 Z-0.3396
N7810 Y0.3068 Z-0.3271
N7815 Y0.3583 Z-0.3178
N7820 Y0.3852 Z-0.3135
N7825 Y0.3959 Z-0.3123
N7830 Y0.4035
N7835 Y0.411 Z-0.313
N7840 Y0.4184 Z-0.3144
N7845 Y0.4291 Z-0.3179
N7850 Y0.4358 Z-0.321
N7855 Y0.4421 Z-0.3247
N7860 Y0.4493 Z-0.3301
N7865 Y0.4557 Z-0.3363
N7870 Y0.4601 Z-0.3417
N7875 Y0.4634 Z-0.3471
N7880 Y0.4662 Z-0.3529
N7885 Y0.4685 Z-0.3604
N7890 Y0.4695 Z-0.3662
N7895 Y0.4698 Z-0.3715
N7900 Z-0.54
N7905 Y0.6689
N7910 Y0.669 Z-0.3482
N7915 Y0.6698 Z-0.3403
N7920 Y0.6707 Z-0.3365
N7925 Y0.6734 Z-0.3281
N7930 Y0.6765 Z-0.3214
N7935 Y0.6822 Z-0.3122
N7940 Y0.689 Z-0.3039
N7945 Y0.6967 Z-0.2967
N7950 Y0.7052 Z-0.2903
N7955 Y0.7147 Z-0.285
N7960 Y0.7205 Z-0.2807
N7965 Y0.7257 Z-0.2753
N7970 Y0.7596 Z-0.2351
N7975 Y0.7748 Z-0.2186
N7980 Y0.7925 Z-0.202
N7985 Y0.8098 Z-0.1881
N7990 Y0.8296 Z-0.1745
N7995 Y0.8497 Z-0.1628
N8000 Y0.8723 Z-0.1519
N8005 Y0.8892 Z-0.1452
N8010 Y0.8964 Z-0.1426
N8015 Y0.9252 Z-0.1329
N8020 Y0.9461 Z-0.126
N8025 Y0.9955 Z-0.111
N8030 Y1.0218 Z-0.1037
N8035 Y1.0305 Z-0.1022
N8040 Y1.0401 Z-0.1018
N8045 Y1.0495 Z-0.1024
N8050 Y1.0587 Z-0.1042
N8055 Y1.0667 Z-0.1067
N8060 Y1.076 Z-0.1108
N8065 Y1.0822 Z-0.1146
N8070 Y1.088 Z-0.119
N8075 Y1.0932 Z-0.1239
N8080 Y1.0976 Z-0.1293
N8085 Y1.101 Z-0.1346
N8090 Y1.1037 Z-0.1403
N8095 Y1.1061 Z-0.1477
N8100 Y1.107 Z-0.1535
N8105 Y1.1073 Z-0.1584
N8110 Z-0.54
N8115 Y1.3064
N8120 Y1.3065 Z-0.1084
N8125 Y1.3068 Z-0.1034
N8130 Y1.3082 Z-0.0952
N8135 Y1.3109 Z-0.0874
N8140 Y1.3144 Z-0.0805
N8145 Y1.3184 Z-0.0744
N8150 Y1.3231 Z-0.0688
N8155 Y1.3308 Z-0.0615
N8160 Y1.3394 Z-0.0555
N8165 Y1.3487 Z-0.0506
N8170 Y1.3584 Z-0.0471
N8175 Y1.3685 Z-0.0449
N8180 Y1.3855 Z-0.0436
N8185 Y1.4458 Z-0.0408
N8190 Y1.5004 Z-0.04
N8195 Y1.5018 Z-0.0398
N8200 Y1.5031 Z-0.0394
N8205 Y1.5044 Z-0.0389
N8210 Y1.5058 Z-0.0387
N8215 G03 X0.8004 I-0.0125
N8220 G01 Y1.5044 Z-0.0389
N8225 Y1.5031 Z-0.0394
N8230 Y1.5018 Z-0.0398
N8235 Y1.5004 Z-0.04
N8240 Y1.4458 Z-0.0408
N8245 Y1.3855 Z-0.0436
N8250 Y1.3753 Z-0.0447
N8255 Y1.3653 Z-0.0474
N8260 Y1.3589 Z-0.05
N8265 Y1.3527 Z-0.0533
N8270 Y1.3469 Z-0.0573
N8275 Y1.3414 Z-0.0618
N8280 Y1.3364 Z-0.067
N8285 Y1.332 Z-0.0728
N8290 Y1.3281 Z-0.0792
N8295 Y1.325 Z-0.0863
N8300 Y1.3226 Z-0.0943
N8305 Y1.3214 Z-0.1023
N8310 Y1.3212 Z-0.1067
N8315 Z-0.54
N8320 Y1.0927
N8325 Y1.0925 Z-0.1611
N8330 Y1.0917 Z-0.1546
N8335 Y1.0898 Z-0.1471
N8340 Y1.0864 Z-0.1389
N8345 Y1.083 Z-0.133
N8350 Y1.0788 Z-0.1275
N8355 Y1.0739 Z-0.1223
N8360 Y1.0683 Z-0.1177
N8365 Y1.0623 Z-0.1137
N8370 Y1.0557 Z-0.1103
N8375 Y1.0488 Z-0.1077
N8380 Y1.0415 Z-0.1058
N8385 Y1.0341 Z-0.1048
N8390 Y1.0246 Z-0.1046
N8395 Y1.0154 Z-0.1057
N8400 Y1.0054 Z-0.1082
N8405 Y0.985 Z-0.1141
N8410 Y0.939 Z-0.1283
N8415 Y0.8905 Z-0.1447
N8420 Y0.8699 Z-0.1529
N8425 Y0.8535 Z-0.1609
N8430 Y0.8466 Z-0.1645
N8435 Y0.8277 Z-0.1757
N8440 Y0.8074 Z-0.19
N8445 Y0.7905 Z-0.2037
N8450 Y0.773 Z-0.2204
N8455 Y0.7568 Z-0.2383
N8460 Y0.7281 Z-0.2726
N8465 Y0.7232 Z-0.278
N8470 Y0.7165 Z-0.2839
N8475 Y0.7091 Z-0.2893
N8480 Y0.7023 Z-0.2957
N8485 Y0.6966 Z-0.3028
N8490 Y0.6926 Z-0.309
N8495 Y0.6886 Z-0.3174
N8500 Y0.6866 Z-0.3229
N8505 Y0.6846 Z-0.3314
N8510 Y0.6839 Z-0.3365
N8515 Y0.6837 Z-0.3415
N8520 Z-0.54
N8525 Y0.4552
N8530 Y0.4551 Z-0.3745
N8535 Y0.4547 Z-0.3683
N8540 Y0.4534 Z-0.3609
N8545 Y0.4514 Z-0.3547
N8550 Y0.4494 Z-0.35
N8555 Y0.4456 Z-0.3431
N8560 Y0.4414 Z-0.3375
N8565 Y0.4366 Z-0.3323
N8570 Y0.429 Z-0.3261
N8575 Y0.422 Z-0.3218
N8580 Y0.4154 Z-0.3186
N8585 Y0.4083 Z-0.3162
N8590 Y0.401 Z-0.3146
N8595 Y0.3911 Z-0.3137
N8600 Y0.3859 Z-0.3138
N8605 Y0.3776 Z-0.3147
N8610 Y0.3532 Z-0.3187
N8615 Y0.3017 Z-0.3281
N8620 Y0.2505 Z-0.3387
N8625 Y0.1921 Z-0.3525
N8630 Y0.1415 Z-0.3659
N8635 Y0.084 Z-0.3829
N8640 Y0.0342 Z-0.3991
N8645 Y-0.0004 Z-0.4113
N8650 Y-0.002 Z-0.4116
N8655 Y-0.0037 Z-0.4115
N8660 Y-0.0052 Z-0.411
N8665 Y-0.0066 Z-0.4105
N8670 Y-0.008 Z-0.4104
N8675 G02 X0.7754 I-0.0125
N8680 G01 Y-0.0066 Z-0.4105
N8685 Y-0.0053 Z-0.411
N8690 Y-0.0052
N8695 Y-0.0037 Z-0.4116
N8700 Y-0.002
N8705 Y-0.0004 Z-0.4113
N8710 Y0.0294 Z-0.4007
N8715 Y0.0864 Z-0.3821
N8720 Y0.1366 Z-0.3673
N8725 Y0.1946 Z-0.3519
N8730 Y0.2455 Z-0.3398
N8735 Y0.3001 Z-0.3284
N8740 Y0.3483 Z-0.3196
N8745 Y0.3726 Z-0.3155
N8750 Y0.3808 Z-0.3146
N8755 Y0.3895 Z-0.3148
N8760 Y0.3969 Z-0.3158
N8765 Y0.4041 Z-0.3178
N8770 Y0.411 Z-0.3205
N8775 Y0.4174 Z-0.324
N8780 Y0.4234 Z-0.3281
N8785 Y0.4288 Z-0.3329
N8790 Y0.4335 Z-0.3381
N8795 Y0.4375 Z-0.3437
N8800 Y0.4416 Z-0.3513
N8805 Y0.4438 Z-0.357
N8810 Y0.4458 Z-0.364
N8815 Y0.4467 Z-0.3701
N8820 Y0.4471 Z-0.3767
N8825 Z-0.54
N8830 Y0.6916
N8835 Y0.6917 Z-0.3346
N8840 Y0.6921 Z-0.3272
N8845 Y0.6939 Z-0.318
N8850 Y0.6965 Z-0.3104
N8855 Y0.6999 Z-0.3035
N8860 Y0.705 Z-0.2957
N8865 Y0.711 Z-0.2889
N8870 Y0.7171 Z-0.2836
N8875 Y0.7245 Z-0.2766
N8880 Y0.7573 Z-0.2377
N8885 Y0.7747 Z-0.2186
N8890 Y0.7909 Z-0.2034
N8895 Y0.8074 Z-0.19
N8900 Y0.8281 Z-0.1754
N8905 Y0.8471 Z-0.1642
N8910 Y0.8539 Z-0.1607
N8915 Y0.8669 Z-0.1544
N8920 Y0.8739 Z-0.1512
N8925 Y0.8907 Z-0.1446
N8930 Y0.9434 Z-0.1268
N8935 Y0.9862 Z-0.1137
N8940 Y1.0067 Z-0.1079
N8945 Y1.0156 Z-0.1064
N8950 Y1.0233 Z-0.1061
N8955 Y1.0308 Z-0.1068
N8960 Y1.0381 Z-0.1083
N8965 Y1.0452 Z-0.1106
N8970 Y1.0519 Z-0.1137
N8975 Y1.0581 Z-0.1175
N8980 Y1.065 Z-0.1232
N8985 Y1.071 Z-0.1296
N8990 Y1.0751 Z-0.1353
N8995 Y1.0792 Z-0.1428
N9000 Y1.0814 Z-0.1484
N9005 Y1.0833 Z-0.1555
N9010 Y1.0844 Z-0.1635
N9015 Y1.0847 Z-0.5399
N9020 Y1.3291 Z-0.54
N9025 Y1.3293 Z-0.1019
N9030 Y1.3302 Z-0.0947
N9035 Y1.3324 Z-0.0864
N9040 Y1.3346 Z-0.0807
N9045 Y1.339 Z-0.0725
N9050 Y1.3433 Z-0.0666
N9055 Y1.3482 Z-0.0613
N9060 Y1.3536 Z-0.0566
N9065 Y1.3594 Z-0.0526
N9070 Y1.3656 Z-0.0493
N9075 Y1.3721 Z-0.0467
N9080 Y1.3787 Z-0.0448
N9085 Y1.3872 Z-0.0435
N9090 Y1.4458 Z-0.0408
N9095 Y1.5004 Z-0.04
N9100 Y1.5018 Z-0.0398
N9105 Y1.5031 Z-0.0394
N9110 Y1.5044 Z-0.0389
N9115 Y1.5058 Z-0.0387
N9120 G03 X0.7504 I-0.0125
N9125 G01 Y1.5044 Z-0.0389
N9130 Y1.5031 Z-0.0394
N9135 Y1.5018 Z-0.0398
N9140 Y1.5004 Z-0.04
N9145 Y1.4458 Z-0.0408
N9150 Y1.3889 Z-0.0434
N9155 Y1.3821 Z-0.0444
N9160 Y1.3754 Z-0.0461
N9165 Y1.369 Z-0.0486
N9170 Y1.3627 Z-0.0518
N9175 Y1.3569 Z-0.0557
N9180 Y1.3514 Z-0.0602
N9185 Y1.3465 Z-0.0655
N9190 Y1.3421 Z-0.0713
N9195 Y1.3384 Z-0.0778
N9200 Y1.3354 Z-0.0849
N9205 Y1.3332 Z-0.0929
N9210 Y1.3321 Z-0.1005
N9215 Y1.3319 Z-0.1057
N9220 Y1.3317 Z-0.54
N9225 Y1.082
N9230 Y1.0819 Z-0.1692
N9235 Y1.0815 Z-0.1616
N9240 Y1.0801 Z-0.1541
N9245 Y1.0782 Z-0.1477
N9250 Y1.0762 Z-0.143
N9255 Y1.0724 Z-0.136
N9260 Y1.0684 Z-0.1303
N9265 Y1.0637 Z-0.1251
N9270 Y1.0584 Z-0.1203
N9275 Y1.0525 Z-0.1161
N9280 Y1.046 Z-0.1126
N9285 Y1.0392 Z-0.1099
N9290 Y1.032 Z-0.1079
N9295 Y1.0246 Z-0.1069
N9300 Y1.0162 Z-0.1067
N9305 Y1.0083 Z-0.1077
N9310 Y0.9983 Z-0.1102
N9315 Y0.9779 Z-0.1163
N9320 Y0.9384 Z-0.1284
N9325 Y0.8907 Z-0.1446
N9330 Y0.8686 Z-0.1535
N9335 Y0.8537 Z-0.1608
N9340 Y0.8468 Z-0.1644
N9345 Y0.8279 Z-0.1756
N9350 Y0.8074 Z-0.19
N9355 Y0.7907 Z-0.2036
N9360 Y0.7732 Z-0.2202
N9365 Y0.757 Z-0.2381
N9370 Y0.7282 Z-0.2724
N9375 Y0.7234 Z-0.2778
N9380 Y0.7123 Z-0.288
N9385 Y0.7076 Z-0.2934
N9390 Y0.7034 Z-0.2995
N9395 Y0.6998 Z-0.3062
N9400 Y0.697 Z-0.3137
N9405 Y0.6961 Z-0.3173
N9410 Y0.6947 Z-0.3251
N9415 Y0.6943 Z-0.3319
N9420 Y0.6942 Z-0.54
N9425 Y0.4444
N9430 Z-0.3773
N9435 Y0.444 Z-0.3698
N9440 Y0.4426 Z-0.3621
N9445 Y0.4406 Z-0.3558
N9450 Y0.4387 Z-0.3512
N9455 Y0.4349 Z-0.3441
N9460 Y0.4308 Z-0.3384
N9465 Y0.4261 Z-0.3331
N9470 Y0.4208 Z-0.3284
N9475 Y0.4149 Z-0.3242
N9480 Y0.4084 Z-0.3207
N9485 Y0.4016 Z-0.318
N9490 Y0.3944 Z-0.3161
N9495 Y0.387 Z-0.315
N9500 Y0.3787 Z-0.3149
N9505 Y0.3674 Z-0.3164
N9510 Y0.339 Z-0.3213
N9515 Y0.3017 Z-0.3281
N9520 Y0.2504 Z-0.3387
N9525 Y0.1921 Z-0.3525
N9530 Y0.1415 Z-0.366
N9535 Y0.0839 Z-0.3829
N9540 Y0.0342 Z-0.3991
N9545 Y-0.0004 Z-0.4113
N9550 X0.7503 Y-0.0017 Z-0.4118
N9555 X0.7501 Y-0.003 Z-0.4122
N9560 X0.7497 Y-0.0043 Z-0.4127
N9565 X0.7492 Y-0.0055 Z-0.4131
N9570 X0.7485 Y-0.0067 Z-0.4135
N9575 X0.7477 Y-0.0077 Z-0.4139
N9580 X0.7467 Y-0.0087 Z-0.4142
N9585 X0.7457 Y-0.0096 Z-0.4146
N9590 X0.7446 Y-0.0104 Z-0.4148
N9595 X0.7433 Y-0.011 Z-0.4151
N9600 X0.742 Y-0.0115 Z-0.4152
N9605 X0.7407 Y-0.0119 Z-0.4154
N9610 X0.7393 Y-0.0121
N9615 X0.7379 Y-0.0122 Z-0.4155
N9620 X0.7365 Y-0.0121 Z-0.4154
N9625 X0.7351 Y-0.0119
N9630 X0.7338 Y-0.0115 Z-0.4152
N9635 X0.7325 Y-0.011 Z-0.4151
N9640 X0.7313 Y-0.0104 Z-0.4148
N9645 X0.7301 Y-0.0096 Z-0.4146
N9650 X0.7291 Y-0.0087 Z-0.4142
N9655 X0.7281 Y-0.0077 Z-0.4139
N9660 X0.7273 Y-0.0067 Z-0.4135
N9665 X0.7266 Y-0.0055 Z-0.4131
N9670 X0.7261 Y-0.0043 Z-0.4127
N9675 X0.7257 Y-0.003 Z-0.4122
N9680 X0.7255 Y-0.0017 Z-0.4118
N9685 X0.7254 Y-0.0004 Z-0.4113
N9690 Y0.0293 Z-0.4007
N9695 Y0.0863 Z-0.3822
N9700 Y0.1365 Z-0.3673
N9705 Y0.1945 Z-0.3519
N9710 Y0.2454 Z-0.3398
N9715 Y0.3 Z-0.3284
N9720 Y0.3549 Z-0.3185
N9725 Y0.3742 Z-0.3153
N9730 Y0.3836 Z-0.3145
N9735 Y0.3931 Z-0.3152
N9740 Y0.4004 Z-0.3167
N9745 Y0.4075 Z-0.3191
N9750 Y0.4142 Z-0.3222
N9755 Y0.4204 Z-0.326
N9760 Y0.4261 Z-0.3305
N9765 Y0.4311 Z-0.3355
N9770 Y0.4355 Z-0.341
N9775 Y0.4392 Z-0.3469
N9780 Y0.4416 Z-0.3516
N9785 Y0.444 Z-0.3579
N9790 Y0.4459 Z-0.3655
N9795 Y0.4469 Z-0.3739
N9800 Y0.447 Z-0.54
N9805 Y0.6917
N9810 Y0.6919 Z-0.331
N9815 Y0.6931 Z-0.3219
N9820 Y0.6953 Z-0.3139
N9825 Y0.6982 Z-0.3068
N9830 Y0.7019 Z-0.3003
N9835 Y0.7061 Z-0.2944
N9840 Y0.7109 Z-0.289
N9845 Y0.7171 Z-0.2836
N9850 Y0.7245 Z-0.2767
N9855 Y0.7571 Z-0.238
N9860 Y0.7747 Z-0.2187
N9865 Y0.7908 Z-0.2035
N9870 Y0.8074 Z-0.19
N9875 Y0.828 Z-0.1755
N9880 Y0.847 Z-0.1643
N9885 Y0.8538 Z-0.1607
N9890 Y0.8668 Z-0.1544
N9895 Y0.8738 Z-0.1513
N9900 Y0.8907 Z-0.1446
N9905 Y0.9433 Z-0.1268
N9910 Y0.9861 Z-0.1138
N9915 Y1.0037 Z-0.1087
N9920 Y1.0134 Z-0.1067
N9925 Y1.0211 Z-0.1061
N9930 Y1.0306 Z-0.1068
N9935 Y1.038 Z-0.1083
N9940 Y1.045 Z-0.1106
N9945 Y1.0533 Z-0.1146
N9950 Y1.0608 Z-0.1197
N9955 Y1.0661 Z-0.1244
N9960 Y1.0717 Z-0.1307
N9965 Y1.0768 Z-0.1384
N9970 Y1.0791 Z-0.1432
N9975 Y1.0815 Z-0.1494
N9980 Y1.0835 Z-0.1572
N9985 Y1.0843 Z-0.1642
N9990 Y1.0845 Z-0.54
N9995 Y1.3293
N10000 Y1.3294 Z-0.1059
N10005 Y1.3299 Z-0.0982
N10010 Y1.3314 Z-0.0902
N10015 Y1.334 Z-0.0826
N10020 Y1.3373 Z-0.0757
N10025 Y1.3412 Z-0.0695
N10030 Y1.3458 Z-0.0639
N10035 Y1.351 Z-0.0589
N10040 Y1.3566 Z-0.0545
N10045 Y1.3625 Z-0.0509
N10050 Y1.3689 Z-0.0479
N10055 Y1.3754 Z-0.0457
N10060 Y1.3821 Z-0.0442
N10065 Y1.3889 Z-0.0434
N10070 Y1.4458 Z-0.0408
N10075 Y1.5004 Z-0.04
N10080 Y1.5018 Z-0.0398
N10085 Y1.5031 Z-0.0394
N10090 Y1.5044 Z-0.0389
N10095 Y1.5058 Z-0.0387
N10100 G03 X0.7004 I-0.0125
N10105 G01 Y1.5044 Z-0.0389
N10110 Y1.5031 Z-0.0394
N10115 Y1.5018 Z-0.0398
N10120 Y1.5004 Z-0.04
N10125 Y1.4458 Z-0.0408
N10130 Y1.3855 Z-0.0436
N10135 Y1.3753 Z-0.0448
N10140 Y1.3657 Z-0.0473
N10145 Y1.3589 Z-0.0501
N10150 Y1.3527 Z-0.0534
N10155 Y1.3469 Z-0.0574
N10160 Y1.3415 Z-0.062
N10165 Y1.3365 Z-0.0672
N10170 Y1.3321 Z-0.073
N10175 Y1.3283 Z-0.0795
N10180 Y1.3252 Z-0.0867
N10185 Y1.3229 Z-0.0947
N10190 Y1.3219 Z-0.1006
N10195 Y1.3216 Z-0.1066
N10200 Z-0.54
N10205 Y1.0924
N10210 Y1.0921 Z-0.161
N10215 Y1.0912 Z-0.1542
N10220 Y1.0893 Z-0.1467
N10225 Y1.087 Z-0.1409
N10230 Y1.0846 Z-0.1364
N10235 Y1.0809 Z-0.1306
N10240 Y1.0763 Z-0.1252
N10245 Y1.0712 Z-0.1203
N10250 Y1.0654 Z-0.1159
N10255 Y1.0591 Z-0.1122
N10260 Y1.0523 Z-0.1092
N10265 Y1.0452 Z-0.1068
N10270 Y1.0379 Z-0.1053
N10275 Y1.0304 Z-0.1046
N10280 Y1.0227 Z-0.1048
N10285 Y1.0125 Z-0.1063
N10290 Y0.9895 Z-0.1127
N10295 Y0.9394 Z-0.1281
N10300 Y0.897 Z-0.1424
N10305 Y0.8898 Z-0.1449
N10310 Y0.8729 Z-0.1516
N10315 Y0.8503 Z-0.1625
N10320 Y0.8285 Z-0.1752
N10325 Y0.8134 Z-0.1856
N10330 Y0.8072 Z-0.1902
N10335 Y0.7901 Z-0.2041
N10340 Y0.7718 Z-0.2216
N10345 Y0.7568 Z-0.2383
N10350 Y0.7262 Z-0.2749
N10355 Y0.7193 Z-0.2818
N10360 Y0.7078 Z-0.2904
N10365 Y0.7027 Z-0.2954
N10370 Y0.6981 Z-0.3009
N10375 Y0.694 Z-0.3069
N10380 Y0.6905 Z-0.3135
N10385 Y0.6876 Z-0.3206
N10390 Y0.6855 Z-0.3282
N10395 Y0.6843 Z-0.3358
N10400 Y0.6841 Z-0.3413
N10405 Z-0.54
N10410 Y0.4548
N10415 Y0.4547 Z-0.3722
N10420 Y0.4537 Z-0.3641
N10425 Y0.4518 Z-0.3567
N10430 Y0.4494 Z-0.3508
N10435 Y0.4471 Z-0.3462
N10440 Y0.4433 Z-0.3404
N10445 Y0.4388 Z-0.335
N10450 Y0.4322 Z-0.3288
N10455 Y0.4248 Z-0.3236
N10460 Y0.4183 Z-0.3201
N10465 Y0.4115 Z-0.3173
N10470 Y0.4043 Z-0.3153
N10475 Y0.3969 Z-0.3141
N10480 Y0.3887 Z-0.3137
N10485 Y0.379 Z-0.3145
N10490 Y0.3532 Z-0.3187
N10495 Y0.3017 Z-0.3281
N10500 Y0.2505 Z-0.3387
N10505 Y0.1921 Z-0.3525
N10510 Y0.1415 Z-0.3659
N10515 Y0.084 Z-0.3829
N10520 Y0.0342 Z-0.3991
N10525 Y-0.0004 Z-0.4113
N10530 Y-0.002 Z-0.4116
N10535 Y-0.0037 Z-0.4115
N10540 Y-0.0052 Z-0.411
N10545 Y-0.0066 Z-0.4105
N10550 Y-0.008 Z-0.4104
N10555 G02 X0.6754 I-0.0125
N10560 G01 Y-0.0066 Z-0.4105
N10565 Y-0.0052 Z-0.411
N10570 Y-0.0037 Z-0.4116
N10575 Y-0.002
N10580 Y-0.0004 Z-0.4113
N10585 Y0.0329 Z-0.3995
N10590 Y0.0827 Z-0.3833
N10595 Y0.1362 Z-0.3675
N10600 Y0.1688 Z-0.3587
N10605 Y0.1974 Z-0.3512
N10610 Y0.246 Z-0.3397
N10615 Y0.3063 Z-0.3272
N10620 Y0.3646 Z-0.3168
N10625 Y0.3915 Z-0.3127
N10630 Y0.3991 Z-0.3123
N10635 Y0.4067 Z-0.3126
N10640 Y0.4171 Z-0.3143
N10645 Y0.4267 Z-0.3173
N10650 Y0.4352 Z-0.321
N10655 Y0.4416 Z-0.3247
N10660 Y0.4474 Z-0.329
N10665 Y0.4528 Z-0.3339
N10670 Y0.4575 Z-0.3391
N10675 Y0.4615 Z-0.3448
N10680 Y0.4648 Z-0.3511
N10685 Y0.4665 Z-0.3554
N10690 Y0.4682 Z-0.3615
N10695 Y0.4691 Z-0.3686
N10700 Y0.4692 Z-0.54
N10705 Y0.6695
N10710 Y0.6696 Z-0.347
N10715 Y0.6708 Z-0.3383
N10720 Y0.6731 Z-0.3301
N10725 Y0.6766 Z-0.3221
N10730 Y0.6818 Z-0.3133
N10735 Y0.6884 Z-0.3049
N10740 Y0.696 Z-0.2974
N10745 Y0.7043 Z-0.291
N10750 Y0.7167 Z-0.2838
N10755 Y0.7197 Z-0.2814
N10760 Y0.7249 Z-0.2762
N10765 Y0.7559 Z-0.2394
N10770 Y0.7725 Z-0.2209
N10775 Y0.7899 Z-0.2043
N10780 Y0.8086 Z-0.189
N10785 Y0.8294 Z-0.1746
N10790 Y0.8511 Z-0.162
N10795 Y0.8675 Z-0.1541
N10800 Y0.8745 Z-0.151
N10805 Y0.8816 Z-0.1482
N10810 Y0.8951 Z-0.143
N10815 Y0.9448 Z-0.1264
N10820 Y0.9876 Z-0.1133
N10825 Y1.0146 Z-0.1056
N10830 Y1.0246 Z-0.1032
N10835 Y1.0328 Z-0.1021
N10840 Y1.0433 Z-0.102
N10845 Y1.0517 Z-0.1029
N10850 Y1.0617 Z-0.1052
N10855 Y1.0704 Z-0.1085
N10860 Y1.0786 Z-0.1128
N10865 Y1.0846 Z-0.1169
N10870 Y1.0901 Z-0.1215
N10875 Y1.0949 Z-0.1267
N10880 Y1.0989 Z-0.1323
N10885 Y1.1015 Z-0.1369
N10890 Y1.104 Z-0.1429
N10895 Y1.1057 Z-0.1491
N10900 Y1.1065 Z-0.1554
N10905 Y1.1067 Z-0.54
N10910 Y1.307
N10915 Y1.3071 Z-0.1082
N10920 Y1.3073 Z-0.1039
N10925 Y1.3086 Z-0.0959
N10930 Y1.3099 Z-0.0915
N10935 Y1.3129 Z-0.0842
N10940 Y1.3156 Z-0.0794
N10945 Y1.3209 Z-0.0718
N10950 Y1.3257 Z-0.0666
N10955 Y1.3336 Z-0.0596
N10960 Y1.3425 Z-0.0539
N10965 Y1.3519 Z-0.0495
N10970 Y1.3618 Z-0.0463
N10975 Y1.3719 Z-0.0445
N10980 Y1.3855 Z-0.0436
N10985 Y1.4458 Z-0.0408
N10990 Y1.5004 Z-0.04
N10995 Y1.5018 Z-0.0398
N11000 Y1.5031 Z-0.0394
N11005 Y1.5044 Z-0.0389
N11010 Y1.5058 Z-0.0387
N11015 G03 X0.6504 I-0.0125
N11020 G01 Y1.5044 Z-0.0389
N11025 Y1.5031 Z-0.0394
N11030 Y1.5018 Z-0.0398
N11035 Y1.5004 Z-0.04
N11040 Y1.4458 Z-0.0408
N11045 Y1.3855 Z-0.0436
N11050 Y1.3583 Z-0.0455
N11055 Y1.3482 Z-0.0472
N11060 Y1.3382 Z-0.05
N11065 Y1.3286 Z-0.0539
N11070 Y1.3194 Z-0.0588
N11075 Y1.3108 Z-0.0646
N11080 Y1.3027 Z-0.0715
N11085 Y1.2956 Z-0.0792
N11090 Y1.291 Z-0.0853
N11095 Y1.2871 Z-0.0923
N11100 Y1.2854 Z-0.0961
N11105 Y1.2833 Z-0.1029
N11110 Y1.2823 Z-0.11
N11115 Y1.2822 Z-0.54
N11120 Y1.1315
N11125 Z-0.1501
N11130 Y1.1312 Z-0.1452
N11135 Y1.1302 Z-0.1402
N11140 Y1.1292 Z-0.1371
N11145 Y1.1273 Z-0.1326
N11150 Y1.1238 Z-0.127
N11155 Y1.1194 Z-0.1217
N11160 Y1.114 Z-0.1169
N11165 Y1.1066 Z-0.1116
N11170 Y1.0984 Z-0.1072
N11175 Y1.0881 Z-0.103
N11180 Y1.0772 Z-0.1001
N11185 Y1.0661 Z-0.0983
N11190 Y1.0547 Z-0.0978
N11195 Y1.0431 Z-0.0987
N11200 Y1.0321 Z-0.1009
N11205 Y0.9944 Z-0.1113
N11210 Y0.9402 Z-0.1279
N11215 Y0.8907 Z-0.1446
N11220 Y0.8683 Z-0.1537
N11225 Y0.8538 Z-0.1607
N11230 Y0.847 Z-0.1643
N11235 Y0.828 Z-0.1755
N11240 Y0.8074 Z-0.19
N11245 Y0.7908 Z-0.2035
N11250 Y0.7746 Z-0.2187
N11255 Y0.7571 Z-0.238
N11260 Y0.7245 Z-0.2767
N11265 Y0.7192 Z-0.2818
N11270 Y0.7167 Z-0.2838
N11275 Y0.7102 Z-0.2871
N11280 Y0.6997 Z-0.2912
N11285 Y0.69 Z-0.296
N11290 Y0.6783 Z-0.3033
N11295 Y0.6681 Z-0.3114
N11300 Y0.6616 Z-0.3174
N11305 Y0.6569 Z-0.3225
N11310 Y0.652 Z-0.3292
N11315 Y0.6482 Z-0.3365
N11320 Y0.6471 Z-0.3393
N11325 Y0.6457 Z-0.3437
N11330 Y0.6448 Z-0.349
N11335 Y0.6447 Z-0.54
N11340 Y0.494
N11345 Z-0.3668
N11350 Y0.4937 Z-0.362
N11355 Y0.4927 Z-0.3571
N11360 Y0.4918 Z-0.354
N11365 Y0.4898 Z-0.3494
N11370 Y0.4863 Z-0.3435
N11375 Y0.4819 Z-0.3381
N11380 Y0.4742 Z-0.3308
N11385 Y0.4656 Z-0.3247
N11390 Y0.4593 Z-0.3211
N11395 Y0.449 Z-0.3166
N11400 Y0.4383 Z-0.3132
N11405 Y0.4272 Z-0.311
N11410 Y0.4159 Z-0.3102
N11415 Y0.4048 Z-0.3107
N11420 Y0.3744 Z-0.3152
N11425 Y0.3535 Z-0.3187
N11430 Y0.302 Z-0.328
N11435 Y0.2507 Z-0.3387
N11440 Y0.1924 Z-0.3524
N11445 Y0.1418 Z-0.3659
N11450 Y0.0826 Z-0.3833
N11455 Y0.0352 Z-0.3988
N11460 Y0.0073 Z-0.4086
N11465 Y-0.0004 Z-0.4113
N11470 Y-0.002 Z-0.4116
N11475 Y-0.0037
N11480 Y-0.0052 Z-0.411
N11485 Y-0.0066 Z-0.4106
N11490 Y-0.008 Z-0.4104
N11495 G02 X0.6254 I-0.0125
N11500 G01 Y-0.0066 Z-0.4106
N11505 Y-0.0052 Z-0.411
N11510 Y-0.0037 Z-0.4116
N11515 Y-0.002
N11520 Y-0.0004 Z-0.4113
N11525 Y0.0294 Z-0.4007
N11530 Y0.0824 Z-0.3834
N11535 Y0.1359 Z-0.3675
N11540 Y0.1914 Z-0.3527
N11545 Y0.2514 Z-0.3385
N11550 Y0.3027 Z-0.3279
N11555 Y0.3542 Z-0.3186
N11560 Y0.3826 Z-0.314
N11565 Y0.4208 Z-0.3084
N11570 Y0.4338 Z-0.3074
N11575 Y0.4471 Z-0.3077
N11580 Y0.4603 Z-0.3093
N11585 Y0.475 Z-0.3124
N11590 Y0.4854 Z-0.3154
N11595 Y0.498 Z-0.3198
N11600 Y0.5121 Z-0.3257
N11605 Y0.5222 Z-0.3306
N11610 Y0.5349 Z-0.3372
N11615 Y0.5499 Z-0.3461
N11620 Y0.5524 Z-0.3481
N11625 Y0.5558 Z-0.3504
N11630 Y0.5584 Z-0.3526
N11635 Y0.5604 Z-0.356
N11640 Y0.5606 Z-0.3574
N11645 Z-0.4839
N11650 Y0.5612 Z-0.5399
N11655 Y0.5782 Z-0.54
N11660 Z-0.3557
N11665 Y0.5785 Z-0.3543
N11670 Y0.5801 Z-0.3517
N11675 Y0.5827 Z-0.348
N11680 Y0.5856 Z-0.3452
N11685 Y0.5882 Z-0.3433
N11690 Y0.5907 Z-0.341
N11695 Y0.6001 Z-0.3337
N11700 Y0.6086 Z-0.3276
N11705 Y0.6193 Z-0.3205
N11710 Y0.6333 Z-0.3121
N11715 Y0.6463 Z-0.3055
N11720 Y0.6589 Z-0.3001
N11725 Y0.6719 Z-0.2957
N11730 Y0.6823 Z-0.2931
N11735 Y0.6994 Z-0.2898
N11740 Y0.7067 Z-0.2884
N11745 Y0.7134 Z-0.2857
N11750 Y0.7163 Z-0.284
N11755 Y0.7192 Z-0.2818
N11760 Y0.7264 Z-0.2745
N11765 Y0.7571 Z-0.238
N11770 Y0.7741 Z-0.2193
N11775 Y0.7911 Z-0.2032
N11780 Y0.8107 Z-0.1875
N11785 Y0.8289 Z-0.1749
N11790 Y0.8473 Z-0.1641
N11795 Y0.8698 Z-0.1529
N11800 Y0.8903 Z-0.1447
N11805 Y0.8975 Z-0.1422
N11810 Y0.9399 Z-0.1279
N11815 Y0.99 Z-0.1126
N11820 Y1.0162 Z-0.1052
N11825 Y1.0508 Z-0.096
N11830 Y1.0626 Z-0.0936
N11835 Y1.0762 Z-0.0922
N11840 Y1.0878 Z-0.0921
N11845 Y1.0993 Z-0.0928
N11850 Y1.1124 Z-0.0945
N11855 Y1.129 Z-0.098
N11860 Y1.1453 Z-0.1026
N11865 Y1.1652 Z-0.1097
N11870 Y1.1793 Z-0.1157
N11875 Y1.1903 Z-0.1213
N11880 Y1.1939 Z-0.124
N11885 Y1.1968 Z-0.1267
N11890 Y1.1975 Z-0.1285
N11895 Y1.1978 Z-0.2907
N11900 Y1.199 Z-0.54
N11905 Y1.2161
N11910 Y1.2163 Z-0.1248
N11915 Y1.217 Z-0.1222
N11920 Y1.2188 Z-0.1187
N11925 Y1.2228 Z-0.1141
N11930 Y1.229 Z-0.1075
N11935 Y1.2408 Z-0.0967
N11940 Y1.256 Z-0.0842
N11945 Y1.271 Z-0.0736
N11950 Y1.2844 Z-0.0656
N11955 Y1.2985 Z-0.0585
N11960 Y1.3113 Z-0.0535
N11965 Y1.3245 Z-0.0497
N11970 Y1.3345 Z-0.0477
N11975 Y1.3481 Z-0.0463
N11980 Y1.3855 Z-0.0436
N11985 Y1.4458 Z-0.0408
N11990 Y1.5004 Z-0.04
N11995 Y1.5018 Z-0.0398
N12000 Y1.5031 Z-0.0394
N12005 Y1.5044 Z-0.0389
N12010 Y1.5058 Z-0.0387
N12015 G03 X0.6004 I-0.0125
N12020 G01 Y1.5044 Z-0.0389
N12025 Y1.5031 Z-0.0394
N12030 Y1.5018 Z-0.0398
N12035 Y1.5004 Z-0.04
N12040 Y1.4458 Z-0.0408
N12045 Y1.3855 Z-0.0436
N12050 Y1.3447 Z-0.0466
N12055 Y1.3099 Z-0.0499
N12060 Y1.2939 Z-0.0526
N12065 Y1.274 Z-0.0575
N12070 Y1.2257 Z-0.0719
N12075 Y1.2074 Z-0.0763
N12080 Y1.1925 Z-0.0789
N12085 Y1.1749 Z-0.0809
N12090 Y1.1489 Z-0.0822
N12095 Y1.1174 Z-0.0836
N12100 Y1.1004 Z-0.0853
N12105 Y1.0836 Z-0.0881
N12110 Y1.0504 Z-0.0961
N12115 Y1.0175 Z-0.1048
N12120 Y0.988 Z-0.1132
N12125 Y0.9387 Z-0.1284
N12130 Y0.8906 Z-0.1446
N12135 Y0.8714 Z-0.1522
N12140 Y0.8532 Z-0.161
N12145 Y0.8464 Z-0.1647
N12150 Y0.8306 Z-0.1738
N12155 Y0.8099 Z-0.188
N12160 Y0.7903 Z-0.204
N12165 Y0.7727 Z-0.2207
N12170 Y0.7566 Z-0.2386
N12175 Y0.7278 Z-0.2729
N12180 Y0.723 Z-0.2783
N12185 Y0.7177 Z-0.2831
N12190 Y0.7118 Z-0.2864
N12195 Y0.7096 Z-0.2874
N12200 Y0.7024 Z-0.2894
N12205 Y0.6949 Z-0.29
N12210 Y0.6756 Z-0.2902
N12215 Y0.6581 Z-0.2917
N12220 Y0.6379 Z-0.2949
N12225 Y0.5963 Z-0.3031
N12230 Y0.5792 Z-0.3057
N12235 Y0.567 Z-0.3068
N12240 Y0.5559 Z-0.3073
N12245 Y0.5419 Z-0.3072
N12250 Y0.5226 Z-0.3062
N12255 Y0.489 Z-0.3038
N12260 Y0.4696 Z-0.3035
N12265 Y0.453 Z-0.3044
N12270 Y0.4235 Z-0.3081
N12275 Y0.3897 Z-0.3129
N12280 Y0.362 Z-0.3172
N12285 Y0.3014 Z-0.3281
N12290 Y0.2451 Z-0.3399
N12295 Y0.1909 Z-0.3528
N12300 Y0.137 Z-0.3672
N12305 Y0.0868 Z-0.382
N12310 Y0.0297 Z-0.4006
N12315 Y-0.0004 Z-0.4113
N12320 Y-0.002 Z-0.4116
N12325 Y-0.0037
N12330 Y-0.0052 Z-0.411
N12335 Y-0.0053
N12340 Y-0.0066 Z-0.4105
N12345 Y-0.008 Z-0.4104
N12350 G02 X0.5754 I-0.0125
N12355 G01 Y-0.0066 Z-0.4105
N12360 Y-0.0052 Z-0.411
N12365 Y-0.0037 Z-0.4116
N12370 Y-0.002
N12375 Y-0.0004 Z-0.4113
N12380 Y0.0337 Z-0.3993
N12385 Y0.0834 Z-0.3831
N12390 Y0.141 Z-0.3661
N12395 Y0.1915 Z-0.3527
N12400 Y0.2499 Z-0.3388
N12405 Y0.3011 Z-0.3282
N12410 Y0.3385 Z-0.3214
N12415 Y0.3669 Z-0.3164
N12420 Y0.4013 Z-0.3112
N12425 Y0.4359 Z-0.3065
N12430 Y0.4712 Z-0.3023
N12435 Y0.5025 Z-0.2991
N12440 Y0.5554 Z-0.2961
N12445 Y0.612 Z-0.2921
N12450 Y0.6407 Z-0.2907
N12455 Y0.6949 Z-0.29
N12460 Y0.7024 Z-0.2894
N12465 Y0.7096 Z-0.2874
N12470 Y0.7121 Z-0.2863
N12475 Y0.7179 Z-0.2829
N12480 Y0.7232 Z-0.278
N12485 Y0.7281 Z-0.2726
N12490 Y0.7568 Z-0.2383
N12495 Y0.773 Z-0.2204
N12500 Y0.7905 Z-0.2038
N12505 Y0.8074 Z-0.19
N12510 Y0.8276 Z-0.1757
N12515 Y0.8466 Z-0.1645
N12520 Y0.8534 Z-0.1609
N12525 Y0.8684 Z-0.1536
N12530 Y0.8905 Z-0.1447
N12535 Y0.9398 Z-0.128
N12540 Y0.9875 Z-0.1134
N12545 Y1.017 Z-0.105
N12550 Y1.0499 Z-0.0963
N12555 Y1.083 Z-0.0882
N12560 Y1.117 Z-0.0806
N12565 Y1.1371 Z-0.0765
N12570 Y1.1819 Z-0.0691
N12575 Y1.2357 Z-0.0598
N12580 Y1.266 Z-0.055
N12585 Y1.304 Z-0.0505
N12590 Y1.3447 Z-0.0466
N12595 Y1.3855 Z-0.0436
N12600 Y1.4458 Z-0.0408
N12605 Y1.5004 Z-0.04
N12610 Y1.5018 Z-0.0398
N12615 Y1.5031 Z-0.0394
N12620 Y1.5044 Z-0.0389
N12625 Y1.5058 Z-0.0387
N12630 G03 X0.5504 I-0.0125
N12635 G01 Y1.5044 Z-0.0389
N12640 Y1.5031 Z-0.0394
N12645 Y1.5018 Z-0.0398
N12650 Y1.5004 Z-0.04
N12655 Y1.4458 Z-0.0408
N12660 Y1.3923 Z-0.0432
N12665 Y1.3515 Z-0.046
N12670 Y1.3176 Z-0.0491
N12675 Y1.2837 Z-0.0528
N12680 Y1.2499 Z-0.0572
N12685 Y1.2154 Z-0.0623
N12690 Y1.1803 Z-0.0682
N12695 Y1.1401 Z-0.0758
N12700 Y1.106 Z-0.083
N12705 Y1.0728 Z-0.0906
N12710 Y1.0397 Z-0.0989
N12715 Y0.9995 Z-0.1099
N12720 Y0.9719 Z-0.1181
N12725 Y0.9429 Z-0.127
N12730 Y0.8908 Z-0.1445
N12735 Y0.8698 Z-0.1529
N12740 Y0.8534 Z-0.1609
N12745 Y0.8465 Z-0.1645
N12750 Y0.8276 Z-0.1758
N12755 Y0.8073 Z-0.19
N12760 Y0.7904 Z-0.2038
N12765 Y0.7729 Z-0.2205
N12770 Y0.7568 Z-0.2384
N12775 Y0.728 Z-0.2727
N12780 Y0.7231 Z-0.2781
N12785 Y0.7169 Z-0.2836
N12790 Y0.712 Z-0.2863
N12795 Y0.7096 Z-0.2874
N12800 Y0.7024 Z-0.2894
N12805 Y0.6949 Z-0.29
N12810 Y0.6407 Z-0.2907
N12815 Y0.6105 Z-0.2918
N12820 Y0.575 Z-0.2936
N12825 Y0.5387 Z-0.296
N12830 Y0.5032 Z-0.299
N12835 Y0.467 Z-0.3028
N12840 Y0.4324 Z-0.3069
N12845 Y0.3986 Z-0.3116
N12850 Y0.3642 Z-0.3169
N12855 Y0.306 Z-0.3272
N12860 Y0.2472 Z-0.3394
N12865 Y0.1963 Z-0.3515
N12870 Y0.1367 Z-0.3673
N12875 Y0.0889 Z-0.3814
N12880 Y0.0607 Z-0.3905
N12885 Y0.0286 Z-0.401
N12890 Y-0.0004 Z-0.4113
N12895 Y-0.0014 Z-0.4116
N12900 Y-0.0025 Z-0.4117
N12905 G02 X0.5254 I-0.0125
N12910 G01 Y-0.0014 Z-0.4116
N12915 Y-0.0004 Z-0.4113
N12920 Y0.0297 Z-0.4006
N12925 Y0.0867 Z-0.3821
N12930 Y0.1369 Z-0.3672
N12935 Y0.1949 Z-0.3518
N12940 Y0.2458 Z-0.3398
N12945 Y0.3004 Z-0.3283
N12950 Y0.3486 Z-0.3196
N12955 Y0.372 Z-0.3156
N12960 Y0.4167 Z-0.309
N12965 Y0.4512 Z-0.3046
N12970 Y0.4866 Z-0.3007
N12975 Y0.5213 Z-0.2974
N12980 Y0.5564 Z-0.2947
N12985 Y0.5925 Z-0.2926
N12990 Y0.6336 Z-0.291
N12995 Y0.6992 Z-0.2898
N13000 Y0.7032 Z-0.2892
N13005 Y0.7102 Z-0.2871
N13010 Y0.7141 Z-0.2853
N13015 Y0.7199 Z-0.2812
N13020 Y0.7251 Z-0.276
N13025 Y0.7562 Z-0.2391
N13030 Y0.7728 Z-0.2206
N13035 Y0.7902 Z-0.204
N13040 Y0.8089 Z-0.1888
N13045 Y0.8269 Z-0.1763
N13050 Y0.848 Z-0.1637
N13055 Y0.8678 Z-0.1539
N13060 Y0.8749 Z-0.1508
N13065 Y0.8819 Z-0.1481
N13070 Y0.8955 Z-0.1429
N13075 Y0.9451 Z-0.1263
N13080 Y0.9742 Z-0.1174
N13085 Y1.001 Z-0.1094
N13090 Y1.0413 Z-0.0985
N13095 Y1.0743 Z-0.0903
N13100 Y1.1075 Z-0.0826
N13105 Y1.1416 Z-0.0755
N13110 Y1.1818 Z-0.0679
N13115 Y1.2154 Z-0.0623
N13120 Y1.2499 Z-0.0572
N13125 Y1.2837 Z-0.0529
N13130 Y1.3176 Z-0.0491
N13135 Y1.3515 Z-0.046
N13140 Y1.3923 Z-0.0432
N13145 Y1.4458 Z-0.0408
N13150 Y1.5004 Z-0.04
N13155 Y1.5018 Z-0.0398
N13160 Y1.5031 Z-0.0394
N13165 Y1.5044 Z-0.0389
N13170 Y1.5058 Z-0.0387
N13175 G03 X0.5004 I-0.0125
N13180 G01 Y1.5044 Z-0.0389
N13185 Y1.5031 Z-0.0394
N13190 Y1.5018 Z-0.0398
N13195 Y1.5004 Z-0.04
N13200 Y1.4458 Z-0.0408
N13205 Y1.3923 Z-0.0432
N13210 Y1.3515 Z-0.046
N13215 Y1.3176 Z-0.0492
N13220 Y1.2837 Z-0.0529
N13225 Y1.2432 Z-0.0581
N13230 Y1.202 Z-0.0645
N13235 Y1.1743 Z-0.0693
N13240 Y1.1409 Z-0.0756
N13245 Y1.1001 Z-0.0843
N13250 Y1.0669 Z-0.0921
N13255 Y1.0339 Z-0.1004
N13260 Y1.0003 Z-0.1096
N13265 Y0.9661 Z-0.1199
N13270 Y0.9444 Z-0.1265
N13275 Y0.8947 Z-0.1431
N13280 Y0.8812 Z-0.1484
N13285 Y0.8741 Z-0.1511
N13290 Y0.8671 Z-0.1543
N13295 Y0.8541 Z-0.1606
N13300 Y0.8473 Z-0.1641
N13305 Y0.8276 Z-0.1758
N13310 Y0.8073 Z-0.1901
N13315 Y0.7911 Z-0.2033
N13320 Y0.7749 Z-0.2185
N13325 Y0.7576 Z-0.2374
N13330 Y0.7247 Z-0.2765
N13335 Y0.7194 Z-0.2816
N13340 Y0.7136 Z-0.2856
N13345 Y0.7098 Z-0.2873
N13350 Y0.7028 Z-0.2893
N13355 Y0.6993 Z-0.2898
N13360 Y0.6336 Z-0.291
N13365 Y0.5932 Z-0.2926
N13370 Y0.5575 Z-0.2947
N13375 Y0.522 Z-0.2974
N13380 Y0.4873 Z-0.3006
N13385 Y0.4587 Z-0.3037
N13390 Y0.4173 Z-0.3089
N13395 Y0.3761 Z-0.315
N13400 Y0.3492 Z-0.3195
N13405 Y0.3011 Z-0.3282
N13410 Y0.2465 Z-0.3396
N13415 Y0.1955 Z-0.3517
N13420 Y0.1376 Z-0.367
N13425 Y0.0874 Z-0.3819
N13430 Y0.0303 Z-0.4004
N13435 Y-0.0004 Z-0.4113
N13440 Y-0.002 Z-0.4116
N13445 Y-0.0037
N13450 Y-0.0052 Z-0.411
N13455 Y-0.0066 Z-0.4106
N13460 Y-0.008 Z-0.4104
N13465 G02 X0.4754 I-0.0125
N13470 G01 Y-0.0066 Z-0.4106
N13475 Y-0.0052 Z-0.411
N13480 Y-0.0037 Z-0.4116
N13485 Y-0.002
N13490 Y-0.0004 Z-0.4113
N13495 Y0.0286 Z-0.401
N13500 Y0.0607 Z-0.3905
N13505 Y0.0889 Z-0.3814
N13510 Y0.1367 Z-0.3673
N13515 Y0.1963 Z-0.3515
N13520 Y0.2473 Z-0.3394
N13525 Y0.306 Z-0.3272
N13530 Y0.3508 Z-0.3192
N13535 Y0.3784 Z-0.3146
N13540 Y0.4197 Z-0.3086
N13545 Y0.4618 Z-0.3034
N13550 Y0.4897 Z-0.3004
N13555 Y0.5251 Z-0.2971
N13560 Y0.5606 Z-0.2945
N13565 Y0.5926 Z-0.2926
N13570 Y0.6369 Z-0.2908
N13575 Y0.6949 Z-0.29
N13580 Y0.7024 Z-0.2894
N13585 Y0.7096 Z-0.2874
N13590 Y0.7136 Z-0.2856
N13595 Y0.7194 Z-0.2816
N13600 Y0.7247 Z-0.2765
N13605 Y0.7576 Z-0.2374
N13610 Y0.7749 Z-0.2185
N13615 Y0.7911 Z-0.2033
N13620 Y0.8073 Z-0.1901
N13625 Y0.8276 Z-0.1758
N13630 Y0.8473 Z-0.1641
N13635 Y0.8541 Z-0.1606
N13640 Y0.8671 Z-0.1543
N13645 Y0.8741 Z-0.1511
N13650 Y0.8812 Z-0.1483
N13655 Y0.8947 Z-0.1431
N13660 Y0.9444 Z-0.1265
N13665 Y0.9872 Z-0.1135
N13670 Y1.0142 Z-0.1058
N13675 Y1.0471 Z-0.097
N13680 Y1.0868 Z-0.0873
N13685 Y1.1201 Z-0.0799
N13690 Y1.1535 Z-0.0732
N13695 Y1.1937 Z-0.0658
N13700 Y1.2349 Z-0.0593
N13705 Y1.2686 Z-0.0547
N13710 Y1.3025 Z-0.0507
N13715 Y1.3439 Z-0.0467
N13720 Y1.3855 Z-0.0436
N13725 Y1.4458 Z-0.0408
N13730 Y1.5004 Z-0.04
N13735 Y1.5018 Z-0.0398
N13740 Y1.5031 Z-0.0394
N13745 Y1.5044 Z-0.0389
N13750 Y1.5058 Z-0.0387
N13755 G03 X0.4504 I-0.0125
N13760 G01 Y1.5044 Z-0.0389
N13765 Y1.5031 Z-0.0394
N13770 Y1.5018 Z-0.0398
N13775 Y1.5004 Z-0.04
N13780 Y1.4458 Z-0.0408
N13785 Y1.3923 Z-0.0432
N13790 Y1.35 Z-0.0462
N13795 Y1.3085 Z-0.0501
N13800 Y1.2746 Z-0.054
N13805 Y1.2401 Z-0.0586
N13810 Y1.2057 Z-0.0639
N13815 Y1.1721 Z-0.0697
N13820 Y1.1379 Z-0.0762
N13825 Y1.0971 Z-0.085
N13830 Y1.0639 Z-0.0928
N13835 Y1.0302 Z-0.1014
N13840 Y0.9958 Z-0.1109
N13845 Y0.9465 Z-0.1259
N13850 Y0.9328 Z-0.1303
N13855 Y0.8968 Z-0.1424
N13860 Y0.8896 Z-0.145
N13865 Y0.8727 Z-0.1517
N13870 Y0.8501 Z-0.1626
N13875 Y0.8283 Z-0.1753
N13880 Y0.8085 Z-0.1891
N13885 Y0.7899 Z-0.2043
N13890 Y0.7718 Z-0.2217
N13895 Y0.7573 Z-0.2377
N13900 Y0.726 Z-0.2751
N13905 Y0.7194 Z-0.2816
N13910 Y0.7135 Z-0.2856
N13915 Y0.7067 Z-0.2884
N13920 Y0.6994 Z-0.2898
N13925 Y0.6342 Z-0.2909
N13930 Y0.5903 Z-0.2927
N13935 Y0.5622 Z-0.2944
N13940 Y0.5266 Z-0.297
N13945 Y0.4844 Z-0.3009
N13950 Y0.449 Z-0.3049
N13955 Y0.4144 Z-0.3093
N13960 Y0.3724 Z-0.3156
N13965 Y0.3381 Z-0.3215
N13970 Y0.3007 Z-0.3283
N13975 Y0.2495 Z-0.3389
N13980 Y0.1911 Z-0.3528
N13985 Y0.1406 Z-0.3662
N13990 Y0.083 Z-0.3832
N13995 Y0.0333 Z-0.3994
N14000 Y-0.0004 Z-0.4113
N14005 Y-0.002 Z-0.4116
N14010 Y-0.0037
N14015 Y-0.0052 Z-0.411
N14020 Y-0.0066 Z-0.4105
N14025 Y-0.008 Z-0.4104
N14030 G02 X0.4255 I-0.0125
N14035 G01 Y-0.0066 Z-0.4105
N14040 Y-0.0052 Z-0.411
N14045 Y-0.0037 Z-0.4116
N14050 Y-0.002
N14055 Y-0.0004 Z-0.4113
N14060 Y0.0338 Z-0.3992
N14065 Y0.0835 Z-0.383
N14070 Y0.1411 Z-0.3661
N14075 Y0.1916 Z-0.3526
N14080 Y0.2459 Z-0.3397
N14085 Y0.3005 Z-0.3283
N14090 Y0.3595 Z-0.3176
N14095 Y0.4014 Z-0.3112
N14100 Y0.436 Z-0.3065
N14105 Y0.4766 Z-0.3017
N14110 Y0.5196 Z-0.2976
N14115 Y0.5543 Z-0.2949
N14120 Y0.5892 Z-0.2928
N14125 Y0.6335 Z-0.291
N14130 Y0.6995 Z-0.2898
N14135 Y0.7067 Z-0.2884
N14140 Y0.7136 Z-0.2856
N14145 Y0.7194 Z-0.2816
N14150 Y0.726 Z-0.2751
N14155 Y0.7573 Z-0.2377
N14160 Y0.7718 Z-0.2217
N14165 Y0.7899 Z-0.2043
N14170 Y0.8085 Z-0.1891
N14175 Y0.8283 Z-0.1753
N14180 Y0.8501 Z-0.1626
N14185 Y0.8727 Z-0.1517
N14190 Y0.8896 Z-0.145
N14195 Y0.8968 Z-0.1424
N14200 Y0.9328 Z-0.1303
N14205 Y0.9465 Z-0.1259
N14210 Y0.9958 Z-0.1109
N14215 Y1.0368 Z-0.0997
N14220 Y1.064 Z-0.0928
N14225 Y1.0971 Z-0.085
N14230 Y1.1312 Z-0.0776
N14235 Y1.1654 Z-0.0709
N14240 Y1.1989 Z-0.065
N14245 Y1.2401 Z-0.0586
N14250 Y1.2746 Z-0.054
N14255 Y1.3085 Z-0.0501
N14260 Y1.35 Z-0.0462
N14265 Y1.3923 Z-0.0432
N14270 Y1.4458 Z-0.0408
N14275 Y1.5004 Z-0.04
N14280 Y1.5018 Z-0.0398
N14285 Y1.5031 Z-0.0394
N14290 Y1.5044 Z-0.0389
N14295 Y1.5058 Z-0.0387
N14300 G03 X0.4005 I-0.0125
N14305 G01 Y1.5044 Z-0.0389
N14310 Y1.5031 Z-0.0394
N14315 Y1.5018 Z-0.0398
N14320 Y1.5004 Z-0.04
N14325 Y1.4458 Z-0.0408
N14330 Y1.3923 Z-0.0432
N14335 Y1.35 Z-0.0462
N14340 Y1.3085 Z-0.0501
N14345 Y1.2814 Z-0.0531
N14350 Y1.2468 Z-0.0576
N14355 Y1.2057 Z-0.0639
N14360 Y1.1788 Z-0.0685
N14365 Y1.1445 Z-0.0749
N14370 Y1.1038 Z-0.0835
N14375 Y1.0772 Z-0.0896
N14380 Y1.0434 Z-0.098
N14385 Y1.0024 Z-0.1091
N14390 Y0.9828 Z-0.1148
N14395 Y0.9392 Z-0.1282
N14400 Y0.8968 Z-0.1424
N14405 Y0.8896 Z-0.145
N14410 Y0.8727 Z-0.1517
N14415 Y0.8501 Z-0.1626
N14420 Y0.8283 Z-0.1753
N14425 Y0.8085 Z-0.1891
N14430 Y0.7899 Z-0.2043
N14435 Y0.7718 Z-0.2217
N14440 Y0.7573 Z-0.2377
N14445 Y0.726 Z-0.2751
N14450 Y0.7194 Z-0.2816
N14455 Y0.7136 Z-0.2856
N14460 Y0.7067 Z-0.2883
N14465 Y0.6995 Z-0.2898
N14470 Y0.6335 Z-0.291
N14475 Y0.5858 Z-0.293
N14480 Y0.5475 Z-0.2954
N14485 Y0.512 Z-0.2983
N14490 Y0.4766 Z-0.3017
N14495 Y0.4352 Z-0.3066
N14500 Y0.4074 Z-0.3103
N14505 Y0.3596 Z-0.3176
N14510 Y0.3005 Z-0.3283
N14515 Y0.2459 Z-0.3397
N14520 Y0.1917 Z-0.3526
N14525 Y0.1411 Z-0.3661
N14530 Y0.0836 Z-0.383
N14535 Y0.0338 Z-0.3992
N14540 Y-0.0004 Z-0.4113
N14545 Y-0.002 Z-0.4116
N14550 Y-0.0037
N14555 Y-0.0052 Z-0.411
N14560 Y-0.0066 Z-0.4105
N14565 Y-0.008 Z-0.4104
N14570 G02 X0.3755 I-0.0125
N14575 G01 Y-0.0066 Z-0.4105
N14580 Y-0.0052 Z-0.411
N14585 Y-0.0037 Z-0.4116
N14590 Y-0.002
N14595 Y-0.0004 Z-0.4113
N14600 Y0.0338 Z-0.3992
N14605 Y0.0836 Z-0.383
N14610 Y0.1411 Z-0.3661
N14615 Y0.1917 Z-0.3526
N14620 Y0.2459 Z-0.3397
N14625 Y0.3005 Z-0.3283
N14630 Y0.3583 Z-0.3178
N14635 Y0.4024 Z-0.311
N14640 Y0.4352 Z-0.3066
N14645 Y0.4766 Z-0.3017
N14650 Y0.512 Z-0.2983
N14655 Y0.54 Z-0.2959
N14660 Y0.5821 Z-0.2931
N14665 Y0.6335 Z-0.291
N14670 Y0.6995 Z-0.2898
N14675 Y0.7067 Z-0.2883
N14680 Y0.7136 Z-0.2855
N14685 Y0.7195 Z-0.2816
N14690 Y0.726 Z-0.2751
N14695 Y0.7573 Z-0.2377
N14700 Y0.7718 Z-0.2217
N14705 Y0.7899 Z-0.2043
N14710 Y0.8085 Z-0.1891
N14715 Y0.8283 Z-0.1753
N14720 Y0.8501 Z-0.1626
N14725 Y0.8727 Z-0.1517
N14730 Y0.8896 Z-0.145
N14735 Y0.8968 Z-0.1424
N14740 Y0.9328 Z-0.1303
N14745 Y0.9465 Z-0.1259
N14750 Y0.9958 Z-0.1109
N14755 Y1.0368 Z-0.0997
N14760 Y1.0772 Z-0.0896
N14765 Y1.1038 Z-0.0835
N14770 Y1.1445 Z-0.0749
N14775 Y1.1788 Z-0.0685
N14780 Y1.2057 Z-0.0639
N14785 Y1.2468 Z-0.0576
N14790 Y1.2814 Z-0.0531
N14795 Y1.3085 Z-0.0501
N14800 Y1.35 Z-0.0462
N14805 Y1.3923 Z-0.0432
N14810 Y1.4458 Z-0.0408
N14815 Y1.5004 Z-0.04
N14820 Y1.5018 Z-0.0398
N14825 Y1.5031 Z-0.0394
N14830 Y1.5044 Z-0.0389
N14835 Y1.5058 Z-0.0387
N14840 G03 X0.3505 I-0.0125
N14845 G01 Y1.5044 Z-0.0389
N14850 Y1.5031 Z-0.0394
N14855 Y1.5018 Z-0.0398
N14860 Y1.5004 Z-0.04
N14865 Y1.4458 Z-0.0408
N14870 Y1.3923 Z-0.0432
N14875 Y1.35 Z-0.0462
N14880 Y1.3077 Z-0.0502
N14885 Y1.2806 Z-0.0532
N14890 Y1.2453 Z-0.0578
N14895 Y1.2041 Z-0.0641
N14900 Y1.1773 Z-0.0688
N14905 Y1.143 Z-0.0752
N14910 Y1.1015 Z-0.084
N14915 Y1.0749 Z-0.0902
N14920 Y1.0403 Z-0.0987
N14925 Y0.9986 Z-0.1101
N14930 Y0.9572 Z-0.1226
N14935 Y0.9362 Z-0.1292
N14940 Y0.8906 Z-0.1446
N14945 Y0.874 Z-0.1512
N14950 Y0.8669 Z-0.1544
N14955 Y0.8539 Z-0.1607
N14960 Y0.8471 Z-0.1642
N14965 Y0.8281 Z-0.1754
N14970 Y0.8074 Z-0.19
N14975 Y0.7909 Z-0.2034
N14980 Y0.7748 Z-0.2186
N14985 Y0.7573 Z-0.2377
N14990 Y0.7246 Z-0.2766
N14995 Y0.7193 Z-0.2817
N15000 Y0.7135 Z-0.2856
N15005 Y0.7095 Z-0.2874
N15010 Y0.7024 Z-0.2894
N15015 Y0.6949 Z-0.29
N15020 Y0.6368 Z-0.2909
N15025 Y0.5887 Z-0.2928
N15030 Y0.5606 Z-0.2945
N15035 Y0.5251 Z-0.2971
N15040 Y0.4821 Z-0.3011
N15045 Y0.4482 Z-0.305
N15050 Y0.4129 Z-0.3095
N15055 Y0.3634 Z-0.317
N15060 Y0.3052 Z-0.3274
N15065 Y0.2465 Z-0.3396
N15070 Y0.1955 Z-0.3517
N15075 Y0.1376 Z-0.367
N15080 Y0.0874 Z-0.3819
N15085 Y0.0303 Z-0.4004
N15090 Y-0.0004 Z-0.4113
N15095 Y-0.0014 Z-0.4116
N15100 Y-0.0025 Z-0.4117
N15105 G02 X0.3255 I-0.0125
N15110 G01 Y-0.0014 Z-0.4116
N15115 Y-0.0004 Z-0.4113
N15120 Y0.0303 Z-0.4004
N15125 Y0.0873 Z-0.3819
N15130 Y0.1375 Z-0.3671
N15135 Y0.1955 Z-0.3517
N15140 Y0.2464 Z-0.3396
N15145 Y0.3051 Z-0.3274
N15150 Y0.3633 Z-0.317
N15155 Y0.4061 Z-0.3105
N15160 Y0.4339 Z-0.3068
N15165 Y0.4752 Z-0.3019
N15170 Y0.525 Z-0.2971
N15175 Y0.5605 Z-0.2945
N15180 Y0.5886 Z-0.2928
N15185 Y0.6368 Z-0.2909
N15190 Y0.6948 Z-0.29
N15195 Y0.7023 Z-0.2894
N15200 Y0.7095 Z-0.2874
N15205 Y0.7179 Z-0.2829
N15210 Y0.7231 Z-0.2781
N15215 Y0.728 Z-0.2727
N15220 Y0.7567 Z-0.2384
N15225 Y0.7729 Z-0.2205
N15230 Y0.7904 Z-0.2038
N15235 Y0.8074 Z-0.19
N15240 Y0.8275 Z-0.1758
N15245 Y0.8465 Z-0.1646
N15250 Y0.8533 Z-0.161
N15255 Y0.8687 Z-0.1535
N15260 Y0.8908 Z-0.1445
N15265 Y0.9397 Z-0.128
N15270 Y0.9914 Z-0.1122
N15275 Y1.0388 Z-0.0991
N15280 Y1.0734 Z-0.0905
N15285 Y1.1 Z-0.0843
N15290 Y1.1415 Z-0.0755
N15295 Y1.1765 Z-0.0689
N15300 Y1.2034 Z-0.0643
N15305 Y1.2453 Z-0.0578
N15310 Y1.2806 Z-0.0532
N15315 Y1.3077 Z-0.0502
N15320 Y1.35 Z-0.0462
N15325 Y1.3923 Z-0.0432
N15330 Y1.4458 Z-0.0408
N15335 Y1.5004 Z-0.04
N15340 Y1.5018 Z-0.0398
N15345 Y1.5031 Z-0.0394
N15350 Y1.5044 Z-0.0389
N15355 Y1.5058 Z-0.0387
N15360 G03 X0.3005 I-0.0125
N15365 G01 Y1.5044 Z-0.0389
N15370 Y1.5031 Z-0.0394
N15375 Y1.5018 Z-0.0398
N15380 Y1.5004 Z-0.04
N15385 Y1.4458 Z-0.0408
N15390 Y1.3923 Z-0.0432
N15395 Y1.35 Z-0.0462
N15400 Y1.3077 Z-0.0502
N15405 Y1.2799 Z-0.0534
N15410 Y1.2438 Z-0.0581
N15415 Y1.1951 Z-0.0656
N15420 Y1.1534 Z-0.0732
N15425 Y1.1266 Z-0.0786
N15430 Y1.0918 Z-0.0862
N15435 Y1.0431 Z-0.098
N15440 Y0.9964 Z-0.1107
N15445 Y0.9471 Z-0.1257
N15450 Y0.9333 Z-0.1301
N15455 Y0.8974 Z-0.1422
N15460 Y0.8902 Z-0.1448
N15465 Y0.8697 Z-0.153
N15470 Y0.8473 Z-0.1641
N15475 Y0.8288 Z-0.175
N15480 Y0.8106 Z-0.1875
N15485 Y0.791 Z-0.2033
N15490 Y0.774 Z-0.2193
N15495 Y0.757 Z-0.2381
N15500 Y0.7264 Z-0.2746
N15505 Y0.7195 Z-0.2815
N15510 Y0.7137 Z-0.2855
N15515 Y0.7068 Z-0.2883
N15520 Y0.6996 Z-0.2897
N15525 Y0.6335 Z-0.291
N15530 Y0.5823 Z-0.2931
N15535 Y0.5324 Z-0.2965
N15540 Y0.4977 Z-0.2996
N15545 Y0.4691 Z-0.3025
N15550 Y0.4168 Z-0.309
N15555 Y0.364 Z-0.3169
N15560 Y0.3057 Z-0.3273
N15565 Y0.247 Z-0.3395
N15570 Y0.1961 Z-0.3515
N15575 Y0.1381 Z-0.3669
N15580 Y0.0879 Z-0.3817
N15585 Y0.0293 Z-0.4008
N15590 Y-0.0004 Z-0.4113
N15595 Y-0.002 Z-0.4116
N15600 Y-0.0037
N15605 Y-0.0052 Z-0.411
N15610 Y-0.0066 Z-0.4106
N15615 Y-0.008 Z-0.4104
N15620 G02 X0.2755 I-0.0125
N15625 G01 Y-0.0066 Z-0.4106
N15630 Y-0.0052 Z-0.411
N15635 Y-0.0037 Z-0.4116
N15640 Y-0.002
N15645 Y-0.0004 Z-0.4113
N15650 Y0.0303 Z-0.4004
N15655 Y0.0873 Z-0.3819
N15660 Y0.1375 Z-0.3671
N15665 Y0.1955 Z-0.3517
N15670 Y0.2464 Z-0.3396
N15675 Y0.301 Z-0.3282
N15680 Y0.3492 Z-0.3195
N15685 Y0.3693 Z-0.3161
N15690 Y0.4188 Z-0.3087
N15695 Y0.4617 Z-0.3034
N15700 Y0.4896 Z-0.3004
N15705 Y0.5318 Z-0.2966
N15710 Y0.5817 Z-0.2932
N15715 Y0.6329 Z-0.291
N15720 Y0.6915 Z-0.29
N15725 Y0.7023 Z-0.2893
N15730 Y0.7095 Z-0.2874
N15735 Y0.7134 Z-0.2856
N15740 Y0.7192 Z-0.2817
N15745 Y0.7245 Z-0.2767
N15750 Y0.7571 Z-0.238
N15755 Y0.7747 Z-0.2187
N15760 Y0.7908 Z-0.2035
N15765 Y0.8074 Z-0.19
N15770 Y0.828 Z-0.1755
N15775 Y0.847 Z-0.1643
N15780 Y0.8538 Z-0.1607
N15785 Y0.8668 Z-0.1544
N15790 Y0.8738 Z-0.1513
N15795 Y0.8944 Z-0.1432
N15800 Y0.9441 Z-0.1266
N15805 Y0.9934 Z-0.1116
N15810 Y1.0417 Z-0.0984
N15815 Y1.0903 Z-0.0865
N15820 Y1.1118 Z-0.0818
N15825 Y1.1459 Z-0.0746
N15830 Y1.1943 Z-0.0657
N15835 Y1.243 Z-0.0582
N15840 Y1.2859 Z-0.0526
N15845 Y1.307 Z-0.0503
N15850 Y1.3492 Z-0.0462
N15855 Y1.3923 Z-0.0432
N15860 Y1.4458 Z-0.0408
N15865 Y1.5004 Z-0.04
N15870 Y1.5018 Z-0.0398
N15875 Y1.5031 Z-0.0394
N15880 Y1.5044 Z-0.0389
N15885 Y1.5058 Z-0.0387
N15890 G03 X0.2505 I-0.0125
N15895 G01 Y1.5044 Z-0.0389
N15900 Y1.5031 Z-0.0394
N15905 Y1.5018 Z-0.0398
N15910 Y1.5004 Z-0.04
N15915 Y1.4458 Z-0.0408
N15920 Y1.3923 Z-0.0432
N15925 Y1.3484 Z-0.0463
N15930 Y1.2986 Z-0.0511
N15935 Y1.2565 Z-0.0563
N15940 Y1.2355 Z-0.0593
N15945 Y1.1928 Z-0.066
N15950 Y1.1436 Z-0.0751
N15955 Y1.0947 Z-0.0855
N15960 Y1.0462 Z-0.0972
N15965 Y1.0124 Z-0.1063
N15970 Y0.9895 Z-0.1127
N15975 Y0.9386 Z-0.1284
N15980 Y0.8905 Z-0.1446
N15985 Y0.8714 Z-0.1523
N15990 Y0.8531 Z-0.1611
N15995 Y0.8463 Z-0.1647
N16000 Y0.8306 Z-0.1739
N16005 Y0.8098 Z-0.1881
N16010 Y0.7902 Z-0.204
N16015 Y0.7727 Z-0.2207
N16020 Y0.7565 Z-0.2386
N16025 Y0.7278 Z-0.2729
N16030 Y0.7229 Z-0.2783
N16035 Y0.7177 Z-0.283
N16040 Y0.7095 Z-0.2874
N16045 Y0.7023 Z-0.2893
N16050 Y0.6949 Z-0.29
N16055 Y0.6329 Z-0.291
N16060 Y0.5812 Z-0.2932
N16065 Y0.5313 Z-0.2966
N16070 Y0.489 Z-0.3005
N16075 Y0.4611 Z-0.3034
N16080 Y0.4183 Z-0.3088
N16085 Y0.368 Z-0.3163
N16090 Y0.3404 Z-0.3211
N16095 Y0.2997 Z-0.3285
N16100 Y0.2451 Z-0.3399
N16105 Y0.1909 Z-0.3528
N16110 Y0.137 Z-0.3672
N16115 Y0.0868 Z-0.382
N16120 Y0.0298 Z-0.4006
N16125 Y-0.0004 Z-0.4113
N16130 Y-0.0014 Z-0.4116
N16135 Y-0.0025 Z-0.4117
N16140 G02 X0.2255 I-0.0125
N16145 G01 Y-0.0014 Z-0.4116
N16150 Y-0.0004 Z-0.4113
N16155 Y0.0292 Z-0.4008
N16160 Y0.0823 Z-0.3835
N16165 Y0.1357 Z-0.3676
N16170 Y0.1912 Z-0.3527
N16175 Y0.2513 Z-0.3385
N16180 Y0.3025 Z-0.3279
N16185 Y0.3607 Z-0.3174
N16190 Y0.4117 Z-0.3097
N16195 Y0.4335 Z-0.3069
N16200 Y0.4757 Z-0.3018
N16205 Y0.5262 Z-0.297
N16210 Y0.5803 Z-0.2933
N16215 Y0.6358 Z-0.2909
N16220 Y0.6976 Z-0.2898
N16225 Y0.705 Z-0.2888
N16230 Y0.7078 Z-0.2879
N16235 Y0.7142 Z-0.2852
N16240 Y0.7201 Z-0.281
N16245 Y0.7253 Z-0.2758
N16250 Y0.7564 Z-0.2389
N16255 Y0.773 Z-0.2204
N16260 Y0.789 Z-0.2051
N16265 Y0.7949 Z-0.2001
N16270 Y0.8092 Z-0.1886
N16275 Y0.8269 Z-0.1763
N16280 Y0.8483 Z-0.1635
N16285 Y0.8681 Z-0.1538
N16290 Y0.8752 Z-0.1507
N16295 Y0.8885 Z-0.1454
N16300 Y0.8957 Z-0.1428
N16305 Y0.9101 Z-0.138
N16310 Y0.9454 Z-0.1262
N16315 Y0.9939 Z-0.1114
N16320 Y1.0438 Z-0.0978
N16325 Y1.0923 Z-0.086
N16330 Y1.1429 Z-0.0752
N16335 Y1.1719 Z-0.0698
N16340 Y1.1988 Z-0.065
N16345 Y1.2482 Z-0.0574
N16350 Y1.2979 Z-0.0512
N16355 Y1.3484 Z-0.0463
N16360 Y1.3923 Z-0.0432
N16365 Y1.4458 Z-0.0408
N16370 Y1.5004 Z-0.04
N16375 Y1.5018 Z-0.0398
N16380 Y1.5031 Z-0.0394
N16385 Y1.5044 Z-0.0389
N16390 Y1.5058 Z-0.0387
N16395 G03 X0.2005 I-0.0125
N16400 G01 Y1.5044 Z-0.0389
N16405 Y1.5031 Z-0.0394
N16410 Y1.5018 Z-0.0398
N16415 Y1.5004 Z-0.04
N16420 Y1.4458 Z-0.0408
N16425 Y1.3889 Z-0.0434
N16430 Y1.3484 Z-0.0463
N16435 Y1.2979 Z-0.0512
N16440 Y1.255 Z-0.0566
N16445 Y1.234 Z-0.0595
N16450 Y1.1913 Z-0.0663
N16455 Y1.1421 Z-0.0754
N16460 Y1.0924 Z-0.086
N16465 Y1.0414 Z-0.0985
N16470 Y0.994 Z-0.1114
N16475 Y0.9447 Z-0.1264
N16480 Y0.895 Z-0.143
N16485 Y0.8815 Z-0.1482
N16490 Y0.8744 Z-0.151
N16495 Y0.8673 Z-0.1541
N16500 Y0.851 Z-0.1621
N16505 Y0.8293 Z-0.1747
N16510 Y0.8085 Z-0.1891
N16515 Y0.7913 Z-0.2031
N16520 Y0.7751 Z-0.2183
N16525 Y0.7587 Z-0.2361
N16530 Y0.7248 Z-0.2763
N16535 Y0.7196 Z-0.2814
N16540 Y0.7137 Z-0.2854
N16545 Y0.7095 Z-0.2874
N16550 Y0.7023 Z-0.2893
N16555 Y0.6949 Z-0.29
N16560 Y0.6329 Z-0.291
N16565 Y0.5808 Z-0.2932
N16570 Y0.5301 Z-0.2967
N16575 Y0.4795 Z-0.3014
N16580 Y0.4525 Z-0.3045
N16585 Y0.4122 Z-0.3096
N16590 Y0.3578 Z-0.3179
N16595 Y0.3004 Z-0.3283
N16600 Y0.2458 Z-0.3398
N16605 Y0.1915 Z-0.3527
N16610 Y0.141 Z-0.3661
N16615 Y0.0834 Z-0.3831
N16620 Y0.0337 Z-0.3993
N16625 Y-0.0004 Z-0.4113
N16630 Y-0.002 Z-0.4116
N16635 Y-0.0037
N16640 Y-0.0052 Z-0.411
N16645 Y-0.0066 Z-0.4105
N16650 Y-0.008 Z-0.4104
N16655 G02 X0.1755 I-0.0125
N16660 G01 Y-0.0066 Z-0.4105
N16665 Y-0.0052 Z-0.411
N16670 Y-0.0037 Z-0.4116
N16675 Y-0.002
N16680 Y-0.0004 Z-0.4113
N16685 Y0.0336 Z-0.3993
N16690 Y0.0833 Z-0.3831
N16695 Y0.1409 Z-0.3661
N16700 Y0.1914 Z-0.3527
N16705 Y0.2457 Z-0.3398
N16710 Y0.3003 Z-0.3284
N16715 Y0.3577 Z-0.318
N16720 Y0.4155 Z-0.3092
N16725 Y0.4523 Z-0.3046
N16730 Y0.4794 Z-0.3014
N16735 Y0.53 Z-0.2967
N16740 Y0.5807 Z-0.2932
N16745 Y0.6329 Z-0.291
N16750 Y0.6949 Z-0.29
N16755 Y0.7023 Z-0.2893
N16760 Y0.7095 Z-0.2874
N16765 Y0.7137 Z-0.2854
N16770 Y0.7196 Z-0.2814
N16775 Y0.7248 Z-0.2763
N16780 Y0.7587 Z-0.2361
N16785 Y0.7751 Z-0.2183
N16790 Y0.7913 Z-0.2031
N16795 Y0.8085 Z-0.1891
N16800 Y0.8293 Z-0.1747
N16805 Y0.851 Z-0.1621
N16810 Y0.8674 Z-0.1541
N16815 Y0.8744 Z-0.151
N16820 Y0.8815 Z-0.1482
N16825 Y0.895 Z-0.143
N16830 Y0.9447 Z-0.1264
N16835 Y0.994 Z-0.1114
N16840 Y1.043 Z-0.098
N16845 Y1.0924 Z-0.086
N16850 Y1.1421 Z-0.0754
N16855 Y1.1637 Z-0.0713
N16860 Y1.198 Z-0.0651
N16865 Y1.2475 Z-0.0575
N16870 Y1.2979 Z-0.0512
N16875 Y1.3421 Z-0.0468
N16880 Y1.3923 Z-0.0432
N16885 Y1.4458 Z-0.0408
N16890 Y1.5004 Z-0.04
N16895 Y1.5018 Z-0.0398
N16900 Y1.5031 Z-0.0394
N16905 Y1.5044 Z-0.0389
N16910 Y1.5058 Z-0.0387
N16915 G03 X0.1505 I-0.0125
N16920 G01 Y1.5044 Z-0.0389
N16925 Y1.5031 Z-0.0394
N16930 Y1.5018 Z-0.0398
N16935 Y1.5004 Z-0.04
N16940 Y1.4458 Z-0.0408
N16945 Y1.3923 Z-0.0432
N16950 Y1.3484 Z-0.0463
N16955 Y1.2979 Z-0.0512
N16960 Y1.2475 Z-0.0575
N16965 Y1.1973 Z-0.0653
N16970 Y1.1547 Z-0.073
N16975 Y1.1339 Z-0.0771
N16980 Y1.0909 Z-0.0864
N16985 Y1.0415 Z-0.0984
N16990 Y0.9918 Z-0.1121
N16995 Y0.9392 Z-0.1282
N17000 Y0.8907 Z-0.1446
N17005 Y0.8737 Z-0.1513
N17010 Y0.8666 Z-0.1545
N17015 Y0.8537 Z-0.1608
N17020 Y0.8469 Z-0.1644
N17025 Y0.8279 Z-0.1756
N17030 Y0.8074 Z-0.19
N17035 Y0.7907 Z-0.2036
N17040 Y0.7732 Z-0.2202
N17045 Y0.757 Z-0.2381
N17050 Y0.7234 Z-0.2778
N17055 Y0.7181 Z-0.2826
N17060 Y0.7123 Z-0.2861
N17065 Y0.7095 Z-0.2874
N17070 Y0.7023 Z-0.2893
N17075 Y0.6949 Z-0.29
N17080 Y0.6331 Z-0.291
N17085 Y0.5809 Z-0.2932
N17090 Y0.5294 Z-0.2967
N17095 Y0.4721 Z-0.3022
N17100 Y0.4149 Z-0.3092
N17105 Y0.3639 Z-0.3169
N17110 Y0.3056 Z-0.3273
N17115 Y0.2469 Z-0.3395
N17120 Y0.196 Z-0.3515
N17125 Y0.138 Z-0.3669
N17130 Y0.0878 Z-0.3817
N17135 Y0.0292 Z-0.4008
N17140 Y-0.0004 Z-0.4113
N17145 Y-0.002 Z-0.4116
N17150 Y-0.0037
N17155 Y-0.0052 Z-0.411
N17160 Y-0.0066 Z-0.4106
N17165 Y-0.008 Z-0.4104
N17170 G02 X0.1255 I-0.0125
N17175 G01 Y-0.0066 Z-0.4106
N17180 Y-0.0052 Z-0.411
N17185 Y-0.0037 Z-0.4116
N17190 Y-0.002
N17195 Y-0.0004 Z-0.4113
N17200 Y0.0299 Z-0.4005
N17205 Y0.0869 Z-0.382
N17210 Y0.1371 Z-0.3672
N17215 Y0.1951 Z-0.3518
N17220 Y0.246 Z-0.3397
N17225 Y0.3047 Z-0.3275
N17230 Y0.363 Z-0.3171
N17235 Y0.414 Z-0.3094
N17240 Y0.4719 Z-0.3022
N17245 Y0.53 Z-0.2967
N17250 Y0.5815 Z-0.2932
N17255 Y0.6337 Z-0.291
N17260 Y0.6997 Z-0.2897
N17265 Y0.7069 Z-0.2882
N17270 Y0.7138 Z-0.2854
N17275 Y0.7166 Z-0.2837
N17280 Y0.7218 Z-0.2795
N17285 Y0.7267 Z-0.2742
N17290 Y0.7567 Z-0.2384
N17295 Y0.773 Z-0.2204
N17300 Y0.7914 Z-0.203
N17305 Y0.811 Z-0.1873
N17310 Y0.8292 Z-0.1747
N17315 Y0.8472 Z-0.1642
N17320 Y0.8694 Z-0.1531
N17325 Y0.8906 Z-0.1446
N17330 Y0.9402 Z-0.1278
N17335 Y0.9903 Z-0.1125
N17340 Y1.04 Z-0.0988
N17345 Y1.0901 Z-0.0865
N17350 Y1.1406 Z-0.0757
N17355 Y1.1897 Z-0.0665
N17360 Y1.2441 Z-0.058
N17365 Y1.2979 Z-0.0512
N17370 Y1.3484 Z-0.0463
N17375 Y1.3923 Z-0.0432
N17380 Y1.4458 Z-0.0408
N17385 Y1.5004 Z-0.04
N17390 Y1.5018 Z-0.0398
N17395 Y1.5031 Z-0.0394
N17400 Y1.5044 Z-0.0389
N17405 Y1.5058 Z-0.0387
N17410 G03 X0.1005 I-0.0125
N17415 G01 Y1.5044 Z-0.0389
N17420 Y1.5031 Z-0.0394
N17425 Y1.5018 Z-0.0398
N17430 Y1.5004 Z-0.04
N17435 Y1.4458 Z-0.0408
N17440 Y1.3923 Z-0.0432
N17445 Y1.3443 Z-0.0466
N17450 Y1.2971 Z-0.0513
N17455 Y1.2433 Z-0.0581
N17460 Y1.1898 Z-0.0665
N17465 Y1.1398 Z-0.0758
N17470 Y1.0894 Z-0.0867
N17475 Y1.0393 Z-0.099
N17480 Y0.9895 Z-0.1127
N17485 Y0.9395 Z-0.1281
N17490 Y0.8971 Z-0.1423
N17495 Y0.8899 Z-0.1449
N17500 Y0.8694 Z-0.1531
N17505 Y0.8473 Z-0.1641
N17510 Y0.8286 Z-0.1751
N17515 Y0.8134 Z-0.1856
N17520 Y0.8072 Z-0.1901
N17525 Y0.7895 Z-0.2047
N17530 Y0.7717 Z-0.2218
N17535 Y0.7569 Z-0.2383
N17540 Y0.7262 Z-0.2748
N17545 Y0.7213 Z-0.28
N17550 Y0.7138 Z-0.2854
N17555 Y0.7069 Z-0.2882
N17560 Y0.6997 Z-0.2897
N17565 Y0.6301 Z-0.2911
N17570 Y0.5814 Z-0.2932
N17575 Y0.5266 Z-0.297
N17580 Y0.4685 Z-0.3026
N17585 Y0.4139 Z-0.3094
N17590 Y0.3629 Z-0.3171
N17595 Y0.3047 Z-0.3275
N17600 Y0.246 Z-0.3397
N17605 Y0.195 Z-0.3518
N17610 Y0.1371 Z-0.3672
N17615 Y0.0869 Z-0.382
N17620 Y0.0298 Z-0.4006
N17625 Y-0.0004 Z-0.4113
N17630 Y-0.002 Z-0.4116
N17635 Y-0.0037
N17640 Y-0.0052 Z-0.411
N17645 Y-0.0066 Z-0.4106
N17650 Y-0.008 Z-0.4104
N17655 G02 X0.0755 I-0.0125
N17660 G01 Y-0.0066 Z-0.4106
N17665 Y-0.0052 Z-0.411
N17670 Y-0.0037 Z-0.4116
N17675 Y-0.002
N17680 Y-0.0004 Z-0.4113
N17685 Y0.0304 Z-0.4004
N17690 Y0.0874 Z-0.3818
N17695 Y0.1376 Z-0.367
N17700 Y0.1956 Z-0.3516
N17705 Y0.2465 Z-0.3396
N17710 Y0.3052 Z-0.3274
N17715 Y0.3568 Z-0.3181
N17720 Y0.4152 Z-0.3092
N17725 Y0.4732 Z-0.3021
N17730 Y0.5245 Z-0.2971
N17735 Y0.5828 Z-0.2931
N17740 Y0.6358 Z-0.2909
N17745 Y0.6975 Z-0.2898
N17750 Y0.705 Z-0.2888
N17755 Y0.7077 Z-0.2879
N17760 Y0.7141 Z-0.2852
N17765 Y0.72 Z-0.2811
N17770 Y0.7252 Z-0.2759
N17775 Y0.7563 Z-0.239
N17780 Y0.7729 Z-0.2205
N17785 Y0.7903 Z-0.2039
N17790 Y0.809 Z-0.1887
N17795 Y0.8268 Z-0.1763
N17800 Y0.8482 Z-0.1636
N17805 Y0.8679 Z-0.1538
N17810 Y0.875 Z-0.1508
N17815 Y0.8884 Z-0.1455
N17820 Y0.8956 Z-0.1428
N17825 Y0.938 Z-0.1286
N17830 Y0.9598 Z-0.1218
N17835 Y0.9954 Z-0.1111
N17840 Y1.0378 Z-0.0994
N17845 Y1.0879 Z-0.0871
N17850 Y1.1381 Z-0.0762
N17855 Y1.1891 Z-0.0667
N17860 Y1.2401 Z-0.0586
N17865 Y1.2963 Z-0.0514
N17870 Y1.3477 Z-0.0464
N17875 Y1.3923 Z-0.0432
N17880 Y1.4458 Z-0.0408
N17885 Y1.5004 Z-0.04
N17890 Y1.5018 Z-0.0398
N17895 Y1.5031 Z-0.0394
N17900 Y1.5044 Z-0.0389
N17905 Y1.5058 Z-0.0387
N17910 G03 X0.0505 I-0.0125
N17915 G01 Y1.5044 Z-0.0389
N17920 Y1.5031 Z-0.0394
N17925 Y1.5018 Z-0.0398
N17930 Y1.5004 Z-0.04
N17935 Y1.4458 Z-0.0408
N17940 Y1.3923 Z-0.0432
N17945 Y1.3477 Z-0.0464
N17950 Y1.2929 Z-0.0518
N17955 Y1.2401 Z-0.0586
N17960 Y1.1942 Z-0.0658
N17965 Y1.1384 Z-0.0761
N17970 Y1.093 Z-0.0859
N17975 Y1.0429 Z-0.0981
N17980 Y0.9931 Z-0.1117
N17985 Y0.9438 Z-0.1267
N17990 Y0.8941 Z-0.1433
N17995 Y0.8717 Z-0.1521
N18000 Y0.8535 Z-0.1609
N18005 Y0.8467 Z-0.1645
N18010 Y0.8277 Z-0.1757
N18015 Y0.8073 Z-0.19
N18020 Y0.7905 Z-0.2037
N18025 Y0.773 Z-0.2204
N18030 Y0.7569 Z-0.2383
N18035 Y0.7281 Z-0.2725
N18040 Y0.7232 Z-0.278
N18045 Y0.718 Z-0.2827
N18050 Y0.7095 Z-0.2873
N18055 Y0.7023 Z-0.2893
N18060 Y0.6949 Z-0.29
N18065 Y0.6331 Z-0.291
N18070 Y0.5795 Z-0.2933
N18075 Y0.5273 Z-0.2969
N18080 Y0.4676 Z-0.3027
N18085 Y0.4173 Z-0.3089
N18090 Y0.3571 Z-0.3181
N18095 Y0.3005 Z-0.3283
N18100 Y0.2493 Z-0.339
N18105 Y0.1909 Z-0.3528
N18110 Y0.1403 Z-0.3663
N18115 Y0.0828 Z-0.3833
N18120 Y0.033 Z-0.3995
N18125 Y-0.0004 Z-0.4113
N18130 Y-0.002 Z-0.4116
N18135 Y-0.0037
N18140 Y-0.0052 Z-0.411
N18145 Y-0.0066 Z-0.4106
N18150 Y-0.008 Z-0.4104
N18155 G02 X0.0255 I-0.0125
N18160 G01 Y-0.0066 Z-0.4106
N18165 Y-0.0052 Z-0.411
N18170 Y-0.0037 Z-0.4116
N18175 Y-0.002
N18180 Y-0.0004 Z-0.4113
N18185 Y0.0331 Z-0.3994
N18190 Y0.0829 Z-0.3833
N18195 Y0.1363 Z-0.3674
N18200 Y0.1902 Z-0.353
N18205 Y0.2461 Z-0.3397
N18210 Y0.3065 Z-0.3271
N18215 Y0.358 Z-0.3179
N18220 Y0.4165 Z-0.309
N18225 Y0.4684 Z-0.3026
N18230 Y0.5273 Z-0.2969
N18235 Y0.5795 Z-0.2933
N18240 Y0.6331 Z-0.291
N18245 Y0.6949 Z-0.29
N18250 Y0.7023 Z-0.2893
N18255 Y0.7095 Z-0.2873
N18260 Y0.718 Z-0.2827
N18265 Y0.7232 Z-0.278
N18270 Y0.7281 Z-0.2726
N18275 Y0.7569 Z-0.2383
N18280 Y0.773 Z-0.2204
N18285 Y0.7905 Z-0.2037
N18290 Y0.8073 Z-0.19
N18295 Y0.8277 Z-0.1757
N18300 Y0.8467 Z-0.1645
N18305 Y0.8535 Z-0.1609
N18310 Y0.87 Z-0.1529
N18315 Y0.8907 Z-0.1446
N18320 Y0.943 Z-0.1269
N18325 Y0.9924 Z-0.1119
N18330 Y1.0421 Z-0.0983
N18335 Y1.0922 Z-0.0861
N18340 Y1.1393 Z-0.0759
N18345 Y1.1934 Z-0.0659
N18350 Y1.241 Z-0.0585
N18355 Y1.2922 Z-0.0519
N18360 Y1.3477 Z-0.0464
N18365 Y1.3923 Z-0.0432
N18370 Y1.4458 Z-0.0408
N18375 Y1.5004 Z-0.04
N18380 Y1.5018 Z-0.0398
N18385 Y1.5031 Z-0.0394
N18390 Y1.5044 Z-0.0389
N18395 Y1.5058 Z-0.0387
N18400 G03 X0.0005 I-0.0125
N18405 G01 Y1.5057
N18410 Y1.5043 Z-0.0389
N18415 Y1.503 Z-0.0394
N18420 Y1.5017 Z-0.0398
N18425 Y1.5003 Z-0.04
N18430 Y1.4458 Z-0.0408
N18435 Y1.3923 Z-0.0432
N18440 Y1.3477 Z-0.0464
N18445 Y1.2956 Z-0.0515
N18450 Y1.2402 Z-0.0586
N18455 Y1.1893 Z-0.0666
N18460 Y1.1386 Z-0.0761
N18465 Y1.0882 Z-0.087
N18470 Y1.0381 Z-0.0994
N18475 Y0.9883 Z-0.1131
N18480 Y0.939 Z-0.1282
N18485 Y0.8905 Z-0.1447
N18490 Y0.87 Z-0.1529
N18495 Y0.8535 Z-0.1609
N18500 Y0.8467 Z-0.1645
N18505 Y0.8277 Z-0.1757
N18510 Y0.8073 Z-0.19
N18515 Y0.7905 Z-0.2037
N18520 Y0.773 Z-0.2204
N18525 Y0.7569 Z-0.2383
N18530 Y0.7281 Z-0.2726
N18535 Y0.7232 Z-0.278
N18540 Y0.718 Z-0.2827
N18545 Y0.7095 Z-0.2873
N18550 Y0.7023 Z-0.2893
N18555 Y0.6949 Z-0.2899
N18560 Y0.6331 Z-0.291
N18565 Y0.5795 Z-0.2933
N18570 Y0.5239 Z-0.2972
N18575 Y0.4684 Z-0.3026
N18580 Y0.4165 Z-0.309
N18585 Y0.3572 Z-0.318
N18590 Y0.3057 Z-0.3273
N18595 Y0.247 Z-0.3395
N18600 Y0.1961 Z-0.3515
N18605 Y0.1381 Z-0.3669
N18610 Y0.0879 Z-0.3817
N18615 Y0.0293 Z-0.4008
N18620 Y-0.0003 Z-0.4113
N18625 G19 G02 Y-0.017 Z-0.3995 J-0.0042 K0.0118
N18630 G00 Z0.6
N18635 G17

N18640 M09
N18645 M05
N18650 G28 G91 Z0.
N18655 G90
N18660 G49
N18665 G28 G91 X0. Y0.
N18670 G90
N18675 M30
%
